; generated by Slic3r 0.9.10b on 2013-08-27 at 16:22:43

; layer_height = 0.4
; perimeters = 3
; top_solid_layers = 3
; bottom_solid_layers = 3
; fill_density = 0.4
; perimeter_speed = 30
; infill_speed = 60
; travel_speed = 130
; nozzle_diameter = 0.5
; filament_diameter = 1.75
; extrusion_multiplier = 1
; perimeters extrusion width = 0.53mm
; infill extrusion width = 0.53mm
; solid infill extrusion width = 0.53mm
; top infill extrusion width = 0.53mm
; first layer extrusion width = 0.60mm

G21 ; set units to millimeters
M107
M190 S70 ; wait for bed temperature to be reached
M104 S215 ; set temperature
G28 ; home all axes
G1 Z5 F5000 ; lift nozzle
M109 S215 ; wait for temperature to be reached
G90 ; use absolute coordinates
G92 E0
M82 ; use absolute distances for extrusion
G1 F1800.000 E-1.50000
G92 E0
G1 Z0.400 F7800.000
G1 X90.600 Y29.721
G1 F1800.000 E1.50000
G1 X91.120 Y28.391 F540.000 E1.63739
G1 X91.910 Y27.201 E1.77482
G1 X92.950 Y26.211 E1.91296
G1 X94.170 Y25.471 E2.05025
G1 X95.530 Y25.011 E2.18838
G1 X96.950 Y24.851 E2.32586
G1 X103.040 Y24.851 E2.91179
G1 X104.460 Y25.011 E3.04928
G1 X105.820 Y25.471 E3.18741
G1 X107.040 Y26.211 E3.32469
G1 X108.080 Y27.201 E3.46283
G1 X108.870 Y28.391 E3.60026
G1 X109.390 Y29.721 E3.73765
G1 X109.610 Y31.141 E3.87590
G1 X113.570 Y120.561 E12.48757
G1 X113.570 Y161.561 E16.43225
G1 X113.540 Y162.181 E16.49197
G1 X113.410 Y163.551 E16.62437
G1 X113.310 Y164.211 E16.68859
G1 X113.150 Y164.851 E16.75206
G1 X112.750 Y166.161 E16.88385
G1 X112.540 Y166.751 E16.94410
G1 X112.280 Y167.321 E17.00438
G1 X111.640 Y168.531 E17.13607
G1 X111.290 Y169.111 E17.20125
G1 X110.880 Y169.651 E17.26648
G1 X110.000 Y170.711 E17.39903
G1 X109.580 Y171.171 E17.45896
G1 X109.110 Y171.601 E17.52025
G1 X108.050 Y172.471 E17.65219
G1 X107.540 Y172.851 E17.71338
G1 X106.990 Y173.181 E17.77509
G1 X105.780 Y173.831 E17.90724
G1 X105.200 Y174.101 E17.96879
G1 X104.590 Y174.321 E18.03118
G1 X103.280 Y174.721 E18.16296
G1 X102.640 Y174.881 E18.22643
G1 X101.980 Y174.981 E18.29066
G1 X100.610 Y175.111 E18.42306
G1 X99.990 Y175.141 E18.48278
G1 X99.360 Y175.111 E18.54346
G1 X98.000 Y174.981 E18.67490
G1 X97.350 Y174.881 E18.73818
G1 X96.710 Y174.721 E18.80165
G1 X95.400 Y174.321 E18.93343
G1 X94.780 Y174.101 E18.99673
G1 X94.190 Y173.821 E19.05956
G1 X92.950 Y173.151 E19.19516
G1 X92.410 Y172.821 E19.25605
G1 X91.890 Y172.431 E19.31859
G1 X90.860 Y171.581 E19.44707
G1 X90.410 Y171.171 E19.50564
G1 X89.990 Y170.711 E19.56557
G1 X89.110 Y169.651 E19.69812
G1 X88.700 Y169.111 E19.76335
G1 X88.350 Y168.531 E19.82853
G1 X87.710 Y167.321 E19.96023
G1 X87.450 Y166.751 E20.02050
G1 X87.240 Y166.161 E20.08076
G1 X86.840 Y164.851 E20.21254
G1 X86.680 Y164.231 E20.27414
G1 X86.590 Y163.601 E20.33537
G1 X86.450 Y162.231 E20.46787
G1 X86.410 Y161.561 E20.53245
G1 X86.410 Y120.561 E24.47712
G1 X90.380 Y31.141 E33.08883
G1 X90.587 Y29.807 E33.21873
G1 F1800.000 E31.71873
G92 E0
G1 X99.012 Y115.375 F7800.000
G1 F1800.000 E1.50000
G1 X100.000 Y115.278 F540.000 E1.59553
G1 X101.032 Y115.380 E1.69533
G1 X102.025 Y115.681 E1.79510
G1 X102.939 Y116.170 E1.89489
G1 X103.741 Y116.828 E1.99468
G1 X104.399 Y117.629 E2.09446
G1 X104.888 Y118.544 E2.19425
G1 X105.189 Y119.537 E2.29404
G1 X105.291 Y120.569 E2.39382
G1 X105.189 Y121.601 E2.49361
G1 X104.888 Y122.593 E2.59339
G1 X104.399 Y123.508 E2.69318
G1 X103.741 Y124.310 E2.79297
G1 X102.939 Y124.968 E2.89275
G1 X102.025 Y125.457 E2.99254
G1 X101.032 Y125.758 E3.09233
G1 X100.000 Y125.859 E3.19211
G1 X98.968 Y125.758 E3.29189
G1 X97.975 Y125.457 E3.39168
G1 X97.061 Y124.968 E3.49147
G1 X96.259 Y124.310 E3.59125
G1 X95.601 Y123.508 E3.69104
G1 X95.112 Y122.593 E3.79083
G1 X94.811 Y121.601 E3.89061
G1 X94.709 Y120.569 E3.99040
G1 X94.811 Y119.537 E4.09018
G1 X95.112 Y118.544 E4.18997
G1 X95.601 Y117.629 E4.28976
G1 X96.259 Y116.828 E4.38954
G1 X97.061 Y116.170 E4.48933
G1 X97.975 Y115.681 E4.58911
G1 X98.927 Y115.392 E4.68480
G1 X99.378 Y115.824 F7800.000
G1 F1800.000 E3.18480
G92 E0
G1 X100.000 Y156.278 F7800.000
G1 F1800.000 E1.50000
G1 X101.032 Y156.380 F540.000 E1.59978
G1 X102.025 Y156.681 E1.69957
G1 X102.939 Y157.170 E1.79935
G1 X103.741 Y157.828 E1.89914
G1 X104.399 Y158.629 E1.99892
G1 X104.888 Y159.544 E2.09871
G1 X105.189 Y160.537 E2.19850
G1 X105.291 Y161.569 E2.29828
G1 X105.189 Y162.601 E2.39807
G1 X104.888 Y163.593 E2.49786
G1 X104.399 Y164.508 E2.59764
G1 X103.741 Y165.310 E2.69743
G1 X102.939 Y165.968 E2.79721
G1 X102.025 Y166.457 E2.89700
G1 X101.032 Y166.758 E2.99678
G1 X100.000 Y166.859 E3.09657
G1 X98.968 Y166.758 E3.19636
G1 X97.975 Y166.457 E3.29615
G1 X97.061 Y165.968 E3.39593
G1 X96.259 Y165.310 E3.49572
G1 X95.601 Y164.508 E3.59550
G1 X95.112 Y163.593 E3.69529
G1 X94.811 Y162.601 E3.79508
G1 X94.709 Y161.569 E3.89486
G1 X94.811 Y160.537 E3.99465
G1 X95.112 Y159.544 E4.09443
G1 X95.601 Y158.629 E4.19422
G1 X96.259 Y157.828 E4.29400
G1 X97.061 Y157.170 E4.39379
G1 X97.975 Y156.681 E4.49358
G1 X98.968 Y156.380 E4.59337
G1 X99.914 Y156.287 E4.68480
G1 X100.273 Y156.788 F7800.000
G1 X99.135 Y155.782
G1 X99.135 Y126.356 F540.000 E7.51596
G1 X100.000 Y126.441 E7.59956
G1 X100.865 Y126.356 E7.68316
G1 X100.865 Y155.782 E10.51431
G1 X100.000 Y155.697 E10.59789
G1 X99.222 Y155.773 E10.67316
G1 F1800.000 E9.17316
G92 E0
G1 X100.159 Y47.226 F7800.000
G1 F1800.000 E1.50000
G1 X99.743 Y47.202 F540.000 E1.54010
G1 X99.680 Y45.737 E1.68112
G1 X99.329 Y43.583 E1.89110
G1 X98.988 Y42.947 E1.96060
G1 X98.405 Y41.305 E2.12826
G1 X98.405 Y32.878 E2.93901
G1 X101.595 Y32.878 E3.24601
G1 X101.595 Y41.212 E4.04782
G1 X101.373 Y41.655 E4.09556
G1 X100.635 Y43.744 E4.30871
G1 X100.530 Y44.927 E4.42296
G1 X100.173 Y47.140 E4.63868
G1 X97.826 Y32.299 F7800.000
G1 X102.174 Y32.299 F540.000 E5.05700
G1 X102.174 Y41.349 E5.92765
G1 X101.906 Y41.882 E5.98507
G1 X101.205 Y43.868 E6.18771
G1 X101.104 Y44.999 E6.29692
G1 X100.865 Y46.484 E6.44171
G1 X100.865 Y114.782 E13.01273
G1 X100.000 Y114.697 E13.09633
G1 X99.135 Y114.782 E13.17993
G1 X99.135 Y46.535 E19.74606
G1 X99.104 Y45.797 E19.81719
G1 X98.774 Y43.772 E20.01458
G1 X98.457 Y43.181 E20.07900
G1 X97.826 Y41.404 E20.26045
G1 X97.826 Y32.386 E21.12812
G1 X97.533 Y31.721 F7800.000
G1 X102.753 Y31.721 F378.000 E21.63033
G1 X102.753 Y41.485 E22.56982
G1 X102.440 Y42.109 E22.63692
G1 X101.775 Y43.992 E22.82907
G1 X101.679 Y45.070 E22.93324
G1 X101.443 Y46.531 E23.07555
G1 X101.443 Y114.029 E29.56968
G1 X102.568 Y114.370 E29.68271
G1 X103.727 Y114.990 E29.80926
G1 X104.744 Y115.825 E29.93580
G1 X105.579 Y116.841 E30.06235
G1 X106.199 Y118.001 E30.18889
G1 X106.580 Y119.260 E30.31543
G1 X106.709 Y120.569 E30.44197
G1 X106.580 Y121.878 E30.56852
G1 X106.199 Y123.136 E30.69506
G1 X105.579 Y124.296 E30.82160
G1 X104.744 Y125.313 E30.94814
G1 X103.728 Y126.147 E31.07469
G1 X102.568 Y126.767 E31.20123
G1 X101.443 Y127.108 E31.31427
G1 X101.443 Y155.029 E34.00056
G1 X102.568 Y155.370 E34.11360
G1 X103.727 Y155.990 E34.24014
G1 X104.744 Y156.825 E34.36668
G1 X105.579 Y157.841 E34.49323
G1 X106.199 Y159.001 E34.61977
G1 X106.580 Y160.260 E34.74631
G1 X106.709 Y161.569 E34.87285
G1 X106.580 Y162.878 E34.99940
G1 X106.199 Y164.136 E35.12594
G1 X105.579 Y165.296 E35.25248
G1 X104.744 Y166.313 E35.37903
G1 X103.727 Y167.147 E35.50557
G1 X102.568 Y167.767 E35.63211
G1 X101.309 Y168.149 E35.75866
G1 X100.000 Y168.278 E35.88520
G1 X98.691 Y168.149 E36.01175
G1 X97.432 Y167.767 E36.13828
G1 X96.272 Y167.147 E36.26483
G1 X95.256 Y166.313 E36.39137
G1 X94.421 Y165.296 E36.51791
G1 X93.801 Y164.136 E36.64446
G1 X93.420 Y162.878 E36.77100
G1 X93.291 Y161.569 E36.89754
G1 X93.439 Y160.196 E37.03042
G1 X93.801 Y159.001 E37.15051
G1 X94.421 Y157.841 E37.27705
G1 X95.256 Y156.825 E37.40360
G1 X96.272 Y155.990 E37.53014
G1 X97.432 Y155.370 E37.65668
G1 X98.557 Y155.029 E37.76972
G1 X98.557 Y127.108 E40.45601
G1 X97.432 Y126.767 E40.56905
G1 X96.272 Y126.147 E40.69559
G1 X95.256 Y125.313 E40.82214
G1 X94.421 Y124.296 E40.94868
G1 X93.801 Y123.136 E41.07522
G1 X93.441 Y121.947 E41.19476
G1 X93.420 Y121.878 E41.20177
G1 X93.291 Y120.569 E41.32831
G1 X93.420 Y119.260 E41.45485
G1 X93.801 Y118.001 E41.58139
G1 X94.421 Y116.841 E41.70794
G1 X95.256 Y115.825 E41.83448
G1 X96.272 Y114.990 E41.96102
G1 X97.432 Y114.370 E42.08757
G1 X98.557 Y114.029 E42.20060
G1 X98.557 Y46.548 E48.69310
G1 X98.527 Y45.856 E48.75974
G1 X98.218 Y43.960 E48.94455
G1 X97.927 Y43.416 E49.00388
G1 X97.247 Y41.504 E49.19913
G1 X97.247 Y31.721 E50.14041
G1 X97.446 Y31.721 E50.15949
G1 X97.822 Y32.222 F7800.000
G1 X100.544 Y33.297
G1 X101.176 Y33.929 F1080.000 E50.24553
G1 X101.176 Y34.748 E50.32434
G1 X99.725 Y33.297 E50.52183
G1 X98.907 Y33.297 E50.60065
G1 X101.176 Y35.566 E50.90960
G1 X101.176 Y36.385 E50.98841
G1 X98.824 Y34.033 E51.30865
G1 X98.824 Y34.852 E51.38746
G1 X101.176 Y37.204 E51.70769
G1 X101.176 Y38.022 E51.78650
G1 X98.824 Y35.670 E52.10674
G1 X98.824 Y36.489 E52.18555
G1 X101.176 Y38.841 E52.50578
G1 X101.176 Y39.660 E52.58459
G1 X98.824 Y37.308 E52.90483
G1 X98.824 Y38.126 E52.98364
G1 X101.176 Y40.478 E53.30388
G1 X101.114 Y41.235 E53.37699
G1 X98.824 Y38.945 E53.68883
G1 X98.824 Y39.763 E53.76764
G1 X100.873 Y41.812 E54.04659
G1 X100.659 Y42.417 E54.10835
G1 X98.824 Y40.582 E54.35820
G1 X98.917 Y41.494 E54.44640
G1 X100.445 Y43.022 E54.65451
G1 X99.368 Y42.763 E54.76119
G1 X100.232 Y43.627 E54.87879
G1 X100.072 Y45.197 F7800.000
G1 X99.994 Y45.119 F360.000 E54.88423
G1 X100.127 Y44.833 E54.89974
G1 X99.912 Y44.618 E54.91472
G1 X100.126 Y113.308 F7800.000
G1 X99.874 Y113.057 F360.000 E54.96281
G1 X100.126 Y112.156 E55.08940
G1 X99.874 Y111.905 E55.13748
G1 X100.126 Y111.004 E55.26407
G1 X99.874 Y110.753 E55.31216
G1 X100.126 Y109.852 E55.43875
G1 X99.874 Y109.601 E55.48683
G1 X100.126 Y108.701 E55.61342
G1 X99.874 Y108.450 E55.66151
G1 X100.126 Y107.549 E55.78810
G1 X99.874 Y107.298 E55.83618
G1 X100.126 Y106.397 E55.96277
G1 X99.874 Y106.146 E56.01086
G1 X100.126 Y105.246 E56.13745
G1 X99.874 Y104.994 E56.18553
G1 X100.126 Y104.094 E56.31212
G1 X99.874 Y103.843 E56.36020
G1 X100.126 Y102.942 E56.48680
G1 X99.874 Y102.691 E56.53488
G1 X100.126 Y101.790 E56.66147
G1 X99.874 Y101.539 E56.70955
G1 X100.126 Y100.639 E56.83614
G1 X99.874 Y100.387 E56.88423
G1 X100.126 Y99.487 E57.01082
G1 X99.874 Y99.236 E57.05890
G1 X100.126 Y98.335 E57.18549
G1 X99.874 Y98.084 E57.23358
G1 X100.126 Y97.183 E57.36017
G1 X99.874 Y96.932 E57.40825
G1 X100.126 Y96.032 E57.53484
G1 X99.874 Y95.781 E57.58293
G1 X100.126 Y94.880 E57.70952
G1 X99.874 Y94.629 E57.75760
G1 X100.126 Y93.728 E57.88419
G1 X99.874 Y93.477 E57.93228
G1 X100.126 Y92.576 E58.05887
G1 X99.874 Y92.325 E58.10695
G1 X100.126 Y91.425 E58.23354
G1 X99.874 Y91.174 E58.28162
G1 X100.126 Y90.273 E58.40822
G1 X99.874 Y90.022 E58.45630
G1 X100.126 Y89.121 E58.58289
G1 X99.874 Y88.870 E58.63097
G1 X100.126 Y87.969 E58.75756
G1 X99.874 Y87.718 E58.80565
G1 X100.126 Y86.818 E58.93224
G1 X99.874 Y86.567 E58.98032
G1 X100.126 Y85.666 E59.10691
G1 X99.874 Y85.415 E59.15500
G1 X100.126 Y84.514 E59.28159
G1 X99.874 Y84.263 E59.32967
G1 X100.126 Y83.363 E59.45626
G1 X99.874 Y83.111 E59.50435
G1 X100.126 Y82.211 E59.63094
G1 X99.874 Y81.960 E59.67902
G1 X100.126 Y81.059 E59.80561
G1 X99.874 Y80.808 E59.85370
G1 X100.126 Y79.907 E59.98029
G1 X99.874 Y79.656 E60.02837
G1 X100.126 Y78.756 E60.15496
G1 X99.874 Y78.504 E60.20305
G1 X100.126 Y77.604 E60.32964
G1 X99.874 Y77.353 E60.37772
G1 X100.126 Y76.452 E60.50431
G1 X99.874 Y76.201 E60.55240
G1 X100.126 Y75.300 E60.67899
G1 X99.874 Y75.049 E60.72707
G1 X100.126 Y74.149 E60.85366
G1 X99.874 Y73.898 E60.90175
G1 X100.126 Y72.997 E61.02834
G1 X99.874 Y72.746 E61.07642
G1 X100.126 Y71.845 E61.20301
G1 X99.874 Y71.594 E61.25110
G1 X100.126 Y70.693 E61.37769
G1 X99.874 Y70.442 E61.42577
G1 X100.126 Y69.542 E61.55236
G1 X99.874 Y69.291 E61.60045
G1 X100.126 Y68.390 E61.72704
G1 X99.874 Y68.139 E61.77512
G1 X100.126 Y67.238 E61.90171
G1 X99.874 Y66.987 E61.94980
G1 X100.126 Y66.087 E62.07639
G1 X99.874 Y65.835 E62.12447
G1 X100.126 Y64.935 E62.25106
G1 X99.874 Y64.684 E62.29915
G1 X100.126 Y63.783 E62.42574
G1 X99.874 Y63.532 E62.47382
G1 X100.126 Y62.631 E62.60041
G1 X99.874 Y62.380 E62.64850
G1 X100.126 Y61.480 E62.77509
G1 X99.874 Y61.228 E62.82317
G1 X100.126 Y60.328 E62.94976
G1 X99.874 Y60.077 E62.99785
G1 X100.126 Y59.176 E63.12444
G1 X99.874 Y58.925 E63.17252
G1 X100.126 Y58.024 E63.29911
G1 X99.874 Y57.773 E63.34719
G1 X100.126 Y56.873 E63.47378
G1 X99.874 Y56.622 E63.52187
G1 X100.126 Y55.721 E63.64846
G1 X99.874 Y55.470 E63.69654
G1 X100.126 Y54.569 E63.82313
G1 X99.874 Y54.318 E63.87122
G1 X100.126 Y53.417 E63.99781
G1 X99.874 Y53.166 E64.04589
G1 X100.126 Y52.266 E64.17248
G1 X99.874 Y52.015 E64.22057
G1 X100.126 Y51.114 E64.34716
G1 X99.874 Y50.863 E64.39524
G1 X100.126 Y49.962 E64.52183
G1 X99.874 Y49.711 E64.56992
G1 X100.126 Y48.810 E64.69651
G1 X99.874 Y48.559 E64.74459
G1 F1800.000 E63.24459
G92 E0
G1 X94.888 Y123.423 F7800.000
G1 F1800.000 E1.50000
G1 X94.337 Y122.873 F360.000 E1.57490
G1 X94.331 Y122.048 E1.65426
G1 X93.995 Y121.712 E1.69993
G1 X94.166 Y121.065 E1.76439
G1 X93.906 Y120.804 E1.79980
G1 X94.151 Y120.230 E1.85983
G1 X93.937 Y120.017 E1.88889
G1 X94.224 Y119.485 E1.94702
G1 X94.027 Y119.288 E1.97386
G1 X94.404 Y118.847 E2.02972
G1 X94.217 Y118.660 E2.05519
G1 X94.610 Y118.234 E2.11094
G1 X94.437 Y118.061 E2.13441
G1 X94.895 Y117.700 E2.19049
G1 X94.723 Y117.528 E2.21397
G1 X95.201 Y117.188 E2.27046
G1 X95.035 Y117.022 E2.29303
G1 X95.404 Y116.572 E2.34900
G1 X95.570 Y116.738 E2.37157
G1 X95.961 Y116.310 E2.42732
G1 X95.795 Y116.144 E2.44990
G1 X96.245 Y115.775 E2.50586
G1 X96.411 Y115.941 E2.52843
G1 X96.884 Y115.596 E2.58481
G1 X96.712 Y115.424 E2.60829
G1 X97.245 Y115.138 E2.66649
G1 X97.418 Y115.311 E2.68996
G1 X97.800 Y114.874 E2.74578
G1 X97.987 Y115.062 E2.77125
G1 X98.428 Y114.684 E2.82711
G1 X98.546 Y114.802 E2.84319
G1 F1800.000 E1.34319
G92 E0
G1 X97.696 Y126.232 F7800.000
G1 F1800.000 E1.50000
G1 X97.145 Y125.681 F360.000 E1.57490
G1 X98.521 Y126.238 E1.71765
G1 X98.546 Y126.263 E1.72111
G1 X101.909 Y126.351 F7800.000
G1 X101.722 Y126.164 F360.000 E1.74658
G1 X102.335 Y125.959 E1.80880
G1 X102.508 Y126.131 E1.83228
G1 X102.869 Y125.674 E1.88836
G1 X103.041 Y125.846 E1.91183
G1 X103.381 Y125.368 E1.96832
G1 X103.547 Y125.533 E1.99090
G1 X103.997 Y125.164 E2.04686
G1 X103.831 Y124.999 E2.06943
G1 X104.259 Y124.608 E2.12519
G1 X104.425 Y124.774 E2.14776
G1 X104.794 Y124.324 E2.20372
G1 X104.628 Y124.158 E2.22630
G1 X104.973 Y123.685 E2.28268
G1 X105.145 Y123.857 E2.30615
G1 X105.430 Y123.324 E2.36435
G1 X105.258 Y123.151 E2.38783
G1 X105.694 Y122.769 E2.44364
G1 X105.507 Y122.582 E2.46912
G1 X105.885 Y122.141 E2.52498
G1 X105.698 Y121.954 E2.55045
G1 X106.029 Y121.466 E2.60715
G1 X105.815 Y121.253 E2.63621
G1 X106.102 Y120.721 E2.69434
G1 X105.875 Y120.494 E2.72523
G1 X106.046 Y119.846 E2.78969
G1 X105.786 Y119.586 E2.82510
G1 X105.828 Y118.809 E2.89991
G1 X105.478 Y118.459 E2.94757
G1 X105.177 Y117.340 E3.05911
G1 X103.229 Y115.392 E3.32411
G1 X102.110 Y115.091 E3.43565
G1 X101.759 Y114.741 E3.48331
G1 F1800.000 E1.98331
G92 E0
G1 X100.126 Y154.770 F7800.000
G1 F1800.000 E1.50000
G1 X99.874 Y154.519 F360.000 E1.54810
G1 X100.126 Y153.618 E1.67473
G1 X99.874 Y153.367 E1.72282
G1 X100.126 Y152.467 E1.84945
G1 X99.874 Y152.216 E1.89755
G1 X100.126 Y151.315 E2.02418
G1 X99.874 Y151.064 E2.07228
G1 X100.126 Y150.163 E2.19890
G1 X99.874 Y149.912 E2.24700
G1 X100.126 Y149.011 E2.37363
G1 X99.874 Y148.760 E2.42173
G1 X100.126 Y147.860 E2.54836
G1 X99.874 Y147.609 E2.59646
G1 X100.126 Y146.708 E2.72308
G1 X99.874 Y146.457 E2.77118
G1 X100.126 Y145.556 E2.89781
G1 X99.874 Y145.305 E2.94591
G1 X100.126 Y144.405 E3.07253
G1 X99.874 Y144.153 E3.12063
G1 X100.126 Y143.253 E3.24726
G1 X99.874 Y143.002 E3.29536
G1 X100.126 Y142.101 E3.42199
G1 X99.874 Y141.850 E3.47009
G1 X100.126 Y140.949 E3.59671
G1 X99.874 Y140.698 E3.64481
G1 X100.126 Y139.798 E3.77144
G1 X99.874 Y139.546 E3.81954
G1 X100.126 Y138.646 E3.94617
G1 X99.874 Y138.395 E3.99427
