; generated by Slic3r 0.9.10b on 2013-08-27 at 17:27:11

; layer_height = 0.4
; perimeters = 3
; top_solid_layers = 3
; bottom_solid_layers = 3
; fill_density = 0.35
; perimeter_speed = 35
; infill_speed = 60
; travel_speed = 130
; nozzle_diameter = 0.5
; filament_diameter = 1.75
; extrusion_multiplier = 1
; perimeters extrusion width = 0.53mm
; infill extrusion width = 0.53mm
; solid infill extrusion width = 0.53mm
; top infill extrusion width = 0.53mm
; support material extrusion width = 0.53mm
; first layer extrusion width = 0.60mm

G21 ; set units to millimeters
M107
M190 S70 ; wait for bed temperature to be reached
M104 S215 ; set temperature
G28 ; home all axes
G1 Z5 F5000 ; lift nozzle
M109 S215 ; wait for temperature to be reached
G90 ; use absolute coordinates
G92 E0
M82 ; use absolute distances for extrusion
G1 F1800.000 E-1.50000
G92 E0
G1 Z0.400 F7800.000
G1 X79.520 Y29.381
G1 F1800.000 E1.50000
G1 X80.250 Y28.161 F630.000 E1.63679
G1 X81.220 Y27.131 E1.77291
G1 X82.390 Y26.331 E1.90928
G1 X83.700 Y25.801 E2.04524
G1 X85.100 Y25.561 E2.18190
G1 X96.550 Y24.861 E3.28558
G1 X103.430 Y24.861 E3.94751
G1 X115.120 Y25.561 E5.07424
G1 X116.520 Y25.801 E5.21090
G1 X117.830 Y26.331 E5.34686
G1 X119.010 Y27.131 E5.48403
G1 X119.980 Y28.161 E5.62015
G1 X120.700 Y29.381 E5.75645
G1 X121.160 Y30.721 E5.89275
G1 X121.310 Y32.131 E6.02918
G1 X121.310 Y41.391 E6.92010
G1 X121.290 Y41.811 E6.96055
G1 X113.540 Y162.181 E18.56552
G1 X113.410 Y163.551 E18.69792
G1 X113.310 Y164.211 E18.76214
G1 X113.150 Y164.851 E18.82561
G1 X112.750 Y166.161 E18.95739
G1 X112.540 Y166.751 E19.01765
G1 X112.280 Y167.321 E19.07792
G1 X111.640 Y168.531 E19.20962
G1 X111.290 Y169.111 E19.27480
G1 X110.880 Y169.651 E19.34003
G1 X110.000 Y170.711 E19.47258
G1 X109.580 Y171.171 E19.53251
G1 X109.110 Y171.601 E19.59380
G1 X108.050 Y172.471 E19.72573
G1 X107.540 Y172.851 E19.78692
G1 X106.990 Y173.181 E19.84864
G1 X105.780 Y173.831 E19.98079
G1 X105.200 Y174.101 E20.04234
G1 X104.590 Y174.321 E20.10473
G1 X103.280 Y174.721 E20.23651
G1 X102.640 Y174.881 E20.29998
G1 X101.980 Y174.981 E20.36420
G1 X100.610 Y175.111 E20.49661
G1 X99.990 Y175.141 E20.55633
G1 X99.360 Y175.111 E20.61701
G1 X98.000 Y174.981 E20.74845
G1 X97.350 Y174.881 E20.81173
G1 X96.710 Y174.721 E20.87520
G1 X95.400 Y174.321 E21.00698
G1 X94.780 Y174.101 E21.07027
G1 X94.190 Y173.821 E21.13311
G1 X92.950 Y173.151 E21.26871
G1 X92.410 Y172.821 E21.32960
G1 X91.890 Y172.431 E21.39214
G1 X90.860 Y171.581 E21.52062
G1 X90.410 Y171.171 E21.57919
G1 X89.990 Y170.711 E21.63912
G1 X89.110 Y169.651 E21.77167
G1 X88.700 Y169.111 E21.83690
G1 X88.350 Y168.531 E21.90208
G1 X87.710 Y167.321 E22.03378
G1 X87.450 Y166.751 E22.09405
G1 X87.240 Y166.161 E22.15430
G1 X86.840 Y164.851 E22.28609
G1 X86.680 Y164.231 E22.34769
G1 X86.590 Y163.601 E22.40892
G1 X86.420 Y161.971 E22.56660
G1 X78.930 Y41.801 E34.15077
G1 X78.920 Y32.131 E35.08114
G1 X79.070 Y30.721 E35.21756
G1 X79.492 Y29.463 E35.34521
G1 F1800.000 E33.84521
G92 E0
G1 X96.171 Y32.141 F7800.000
G1 F1800.000 E1.50000
G1 X85.500 Y32.141 F1080.000 E2.52666
G1 X85.500 Y33.298 E2.63798
G1 X96.171 Y33.298 E3.66464
G1 X96.171 Y34.455 E3.77596
G1 X85.500 Y34.455 E4.80262
G1 X85.500 Y35.612 E4.91394
G1 X96.171 Y35.612 E5.94060
G1 X96.171 Y36.769 E6.05192
G1 X85.500 Y36.769 E7.07858
G1 X85.500 Y37.926 E7.18990
G1 X96.171 Y37.926 E8.21656
G1 X96.171 Y39.083 E8.32788
G1 X85.500 Y39.083 E9.35454
G1 X85.500 Y40.240 E9.46586
G1 X96.171 Y40.240 E10.49252
G1 X96.171 Y41.397 E10.60384
G1 X85.500 Y41.397 E11.63050
G1 X86.922 Y42.554 E11.80684
G1 X96.478 Y42.554 E12.72629
G1 X96.889 Y43.712 E12.84444
G1 X89.254 Y43.712 E13.57899
G1 X90.950 Y44.869 E13.77650
G1 X97.275 Y44.869 E14.38505
G1 X97.457 Y46.026 E14.49774
G1 X92.113 Y46.026 E15.01185
G1 X92.783 Y47.183 E15.14050
G1 X97.480 Y47.183 E15.59238
G1 X97.480 Y48.340 E15.70370
G1 X92.783 Y48.340 E16.15557
G1 X92.783 Y49.497 E16.26690
G1 X97.480 Y49.497 E16.71877
G1 X97.480 Y50.654 E16.83009
G1 X92.783 Y50.654 E17.28196
G1 X92.783 Y51.811 E17.39329
G1 X97.480 Y51.811 E17.84516
G1 X97.480 Y52.968 E17.95648
G1 X92.783 Y52.968 E18.40835
G1 X92.783 Y54.125 E18.51968
G1 X97.480 Y54.125 E18.97155
G1 X97.480 Y55.282 E19.08287
G1 X92.783 Y55.282 E19.53474
G1 X92.783 Y56.439 E19.64607
G1 X97.480 Y56.439 E20.09794
G1 X97.480 Y57.597 E20.20926
G1 X92.783 Y57.597 E20.66114
G1 X92.783 Y58.754 E20.77246
G1 X97.480 Y58.754 E21.22433
G1 X97.480 Y59.911 E21.33566
G1 X92.783 Y59.911 E21.78753
G1 X92.783 Y61.068 E21.89885
G1 X97.480 Y61.068 E22.35072
G1 X97.480 Y62.225 E22.46205
G1 X92.783 Y62.225 E22.91392
G1 X92.783 Y63.382 E23.02524
G1 X97.480 Y63.382 E23.47711
G1 X97.480 Y64.539 E23.58844
G1 X92.783 Y64.539 E24.04031
G1 X92.783 Y65.696 E24.15163
G1 X97.480 Y65.696 E24.60350
G1 X97.480 Y66.853 E24.71483
G1 X92.783 Y66.853 E25.16670
G1 X92.783 Y68.010 E25.27802
G1 X97.480 Y68.010 E25.72990
G1 X97.480 Y69.167 E25.84122
G1 X92.783 Y69.167 E26.29309
G1 X92.783 Y70.324 E26.40442
G1 X97.480 Y70.324 E26.85629
G1 X97.480 Y71.481 E26.96761
G1 X92.783 Y71.481 E27.41948
G1 X92.783 Y72.639 E27.53081
G1 X97.480 Y72.639 E27.98268
G1 X97.480 Y73.796 E28.09400
G1 X92.783 Y73.796 E28.54587
G1 X92.783 Y74.953 E28.65720
G1 X97.480 Y74.953 E29.10907
G1 X97.480 Y76.110 E29.22039
G1 X92.783 Y76.110 E29.67226
G1 X92.783 Y77.267 E29.78359
G1 X97.480 Y77.267 E30.23546
G1 X97.480 Y78.424 E30.34678
G1 X92.783 Y78.424 E30.79866
G1 X92.783 Y79.581 E30.90998
G1 X97.480 Y79.581 E31.36185
G1 X97.480 Y80.738 E31.47318
G1 X92.783 Y80.738 E31.92505
G1 X92.783 Y81.895 E32.03637
G1 X97.480 Y81.895 E32.48824
G1 X97.480 Y83.052 E32.59957
G1 X92.783 Y83.052 E33.05144
G1 X92.783 Y84.209 E33.16276
G1 X97.480 Y84.209 E33.61463
G1 X97.480 Y85.366 E33.72596
G1 X92.783 Y85.366 E34.17783
G1 X92.783 Y86.523 E34.28915
G1 X97.480 Y86.523 E34.74102
G1 X97.480 Y87.681 E34.85235
G1 X92.783 Y87.681 E35.30422
G1 X92.783 Y88.838 E35.41554
G1 X97.480 Y88.838 E35.86742
G1 X97.480 Y89.995 E35.97874
G1 X92.783 Y89.995 E36.43061
G1 X92.783 Y91.152 E36.54194
G1 X97.480 Y91.152 E36.99381
G1 X97.480 Y92.309 E37.10513
G1 X92.783 Y92.309 E37.55700
G1 X92.783 Y93.466 E37.66833
G1 X97.480 Y93.466 E38.12020
G1 X97.480 Y94.623 E38.23152
G1 X92.783 Y94.623 E38.68339
G1 X92.783 Y95.780 E38.79472
G1 X97.480 Y95.780 E39.24659
G1 X97.480 Y96.937 E39.35791
G1 X92.783 Y96.937 E39.80978
G1 X92.783 Y98.094 E39.92111
G1 X97.480 Y98.094 E40.37298
G1 X97.480 Y99.251 E40.48430
G1 X92.783 Y99.251 E40.93618
G1 X92.783 Y100.408 E41.04750
G1 X97.480 Y100.408 E41.49937
G1 X97.480 Y101.566 E41.61070
G1 X92.783 Y101.566 E42.06257
G1 X92.783 Y102.723 E42.17389
G1 X97.480 Y102.723 E42.62576
G1 X97.480 Y103.880 E42.73709
G1 X92.783 Y103.880 E43.18896
G1 X92.783 Y105.037 E43.30028
G1 X97.480 Y105.037 E43.75215
G1 X97.480 Y106.194 E43.86348
G1 X92.783 Y106.194 E44.31535
G1 X92.783 Y107.351 E44.42667
G1 X97.480 Y107.351 E44.87854
G1 X97.480 Y108.508 E44.98987
G1 X92.783 Y108.508 E45.44174
G1 X92.783 Y109.665 E45.55306
G1 X97.480 Y109.665 E46.00494
G1 X97.480 Y110.822 E46.11626
G1 X92.783 Y110.822 E46.56813
G1 X92.783 Y111.979 E46.67946
G1 X97.480 Y111.979 E47.13133
G1 X97.480 Y113.136 E47.24265
G1 X92.783 Y113.136 E47.69452
G1 X92.783 Y114.293 E47.80585
G1 X95.424 Y114.293 E48.05994
G1 X94.170 Y115.450 E48.22413
G1 X92.783 Y115.450 E48.35753
G1 X92.783 Y116.608 E48.46885
G1 X93.325 Y116.608 E48.52101
G1 F1800.000 E47.02101
G92 E0
G1 X92.783 Y124.707 F7800.000
G1 F1800.000 E1.50000
G1 X93.420 Y124.707 F1080.000 E1.56126
G1 X94.315 Y125.864 E1.70201
G1 X92.783 Y125.864 E1.84940
G1 X92.783 Y127.021 E1.96072
G1 X95.640 Y127.021 E2.23557
G1 X97.480 Y128.178 E2.44469
G1 X92.783 Y128.178 E2.89656
G1 X92.783 Y129.335 E3.00788
G1 X97.480 Y129.335 E3.45975
G1 X97.480 Y130.493 E3.57108
G1 X92.783 Y130.493 E4.02295
G1 X92.783 Y131.650 E4.13427
G1 X97.480 Y131.650 E4.58615
G1 X97.480 Y132.807 E4.69747
G1 X92.783 Y132.807 E5.14934
G1 X92.783 Y133.964 E5.26067
G1 X97.480 Y133.964 E5.71254
G1 X97.480 Y135.121 E5.82386
G1 X92.783 Y135.121 E6.27573
G1 X92.783 Y136.278 E6.38706
G1 X97.480 Y136.278 E6.83893
G1 X97.480 Y137.435 E6.95025
G1 X92.783 Y137.435 E7.40212
G1 X92.783 Y138.592 E7.51345
G1 X97.480 Y138.592 E7.96532
G1 X97.480 Y139.749 E8.07664
G1 X92.783 Y139.749 E8.52851
G1 X92.783 Y140.906 E8.63984
G1 X97.480 Y140.906 E9.09171
G1 X97.480 Y142.063 E9.20303
G1 X92.783 Y142.063 E9.65491
G1 X92.783 Y143.220 E9.76623
G1 X97.480 Y143.220 E10.21810
G1 X97.480 Y144.377 E10.32943
G1 X92.783 Y144.377 E10.78130
G1 X92.783 Y145.535 E10.89262
G1 X97.480 Y145.535 E11.34449
G1 X97.480 Y146.692 E11.45582
G1 X92.783 Y146.692 E11.90769
G1 X92.783 Y147.849 E12.01901
G1 X97.480 Y147.849 E12.47088
G1 X97.480 Y149.006 E12.58221
G1 X92.783 Y149.006 E13.03408
G1 X92.783 Y150.163 E13.14540
G1 X97.480 Y150.163 E13.59727
G1 X97.480 Y151.320 E13.70860
G1 X92.783 Y151.320 E14.16047
G1 X92.783 Y152.477 E14.27179
G1 X97.480 Y152.477 E14.72367
G1 X97.480 Y153.634 E14.83499
G1 X92.783 Y153.634 E15.28686
G1 X92.783 Y154.791 E15.39819
G1 X96.232 Y154.791 E15.72995
G1 X94.626 Y155.948 E15.92033
G1 X92.783 Y155.948 E16.09765
G1 X92.783 Y157.105 E16.20897
G1 X93.633 Y157.105 E16.29067
G1 F1800.000 E14.79067
G92 E0
G1 X107.217 Y157.105 F7800.000
G1 F1800.000 E1.50000
G1 X106.367 Y157.105 F1080.000 E1.58169
G1 X107.217 Y155.948 E1.71978
G1 X105.374 Y155.948 E1.89709
G1 X103.768 Y154.791 E2.08748
G1 X107.217 Y154.791 E2.41924
G1 X107.217 Y153.634 E2.53056
G1 X102.520 Y153.634 E2.98243
G1 X102.520 Y152.477 E3.09376
G1 X107.217 Y152.477 E3.54563
G1 X107.217 Y151.320 E3.65695
G1 X102.520 Y151.320 E4.10883
G1 X102.520 Y150.163 E4.22015
G1 X107.217 Y150.163 E4.67202
G1 X107.217 Y149.006 E4.78334
G1 X102.520 Y149.006 E5.23522
G1 X102.520 Y147.849 E5.34654
G1 X107.217 Y147.849 E5.79841
G1 X107.217 Y146.692 E5.90974
G1 X102.520 Y146.692 E6.36161
G1 X102.520 Y145.535 E6.47293
G1 X107.217 Y145.535 E6.92480
G1 X107.217 Y144.377 E7.03613
G1 X102.520 Y144.377 E7.48800
G1 X102.520 Y143.220 E7.59932
G1 X107.217 Y143.220 E8.05119
G1 X107.217 Y142.063 E8.16252
G1 X102.520 Y142.063 E8.61439
G1 X102.520 Y140.906 E8.72571
G1 X107.217 Y140.906 E9.17758
G1 X107.217 Y139.749 E9.28891
G1 X102.520 Y139.749 E9.74078
G1 X102.520 Y138.592 E9.85210
G1 X107.217 Y138.592 E10.30397
G1 X107.217 Y137.435 E10.41530
G1 X102.520 Y137.435 E10.86717
G1 X102.520 Y136.278 E10.97849
G1 X107.217 Y136.278 E11.43036
G1 X107.217 Y135.121 E11.54169
G1 X102.520 Y135.121 E11.99356
G1 X102.520 Y133.964 E12.10488
G1 X107.217 Y133.964 E12.55675
G1 X107.217 Y132.807 E12.66808
G1 X102.520 Y132.807 E13.11995
G1 X102.520 Y131.650 E13.23127
G1 X107.217 Y131.650 E13.68315
G1 X107.217 Y130.493 E13.79447
G1 X102.520 Y130.493 E14.24634
G1 X102.520 Y129.335 E14.35767
G1 X107.217 Y129.335 E14.80954
G1 X107.217 Y128.178 E14.92086
G1 X102.520 Y128.178 E15.37273
G1 X104.360 Y127.021 E15.58185
G1 X107.217 Y127.021 E15.85670
G1 X107.217 Y125.864 E15.96802
G1 X105.685 Y125.864 E16.11541
G1 X106.580 Y124.707 E16.25616
G1 X107.217 Y124.707 E16.31742
G1 F1800.000 E14.81742
G92 E0
G1 X107.217 Y116.608 F7800.000
G1 F1800.000 E1.50000
G1 X106.674 Y116.608 F1080.000 E1.55215
G1 X107.217 Y115.450 E1.67509
G1 X105.830 Y115.450 E1.80849
G1 X104.576 Y114.293 E1.97268
G1 X107.217 Y114.293 E2.22677
G1 X107.217 Y113.136 E2.33810
G1 X102.520 Y113.136 E2.78997
G1 X102.520 Y111.979 E2.90129
G1 X107.217 Y111.979 E3.35316
G1 X107.217 Y110.822 E3.46449
G1 X102.520 Y110.822 E3.91636
G1 X102.520 Y109.665 E4.02768
G1 X107.217 Y109.665 E4.47956
G1 X107.217 Y108.508 E4.59088
G1 X102.520 Y108.508 E5.04275
G1 X102.520 Y107.351 E5.15408
G1 X107.217 Y107.351 E5.60595
G1 X107.217 Y106.194 E5.71727
G1 X102.520 Y106.194 E6.16914
G1 X102.520 Y105.037 E6.28047
G1 X107.217 Y105.037 E6.73234
G1 X107.217 Y103.880 E6.84366
G1 X102.520 Y103.880 E7.29553
G1 X102.520 Y102.723 E7.40686
G1 X107.217 Y102.723 E7.85873
G1 X107.217 Y101.566 E7.97005
G1 X102.520 Y101.566 E8.42192
G1 X102.520 Y100.408 E8.53325
G1 X107.217 Y100.408 E8.98512
G1 X107.217 Y99.251 E9.09644
G1 X102.520 Y99.251 E9.54832
G1 X102.520 Y98.094 E9.65964
G1 X107.217 Y98.094 E10.11151
G1 X107.217 Y96.937 E10.22284
G1 X102.520 Y96.937 E10.67471
G1 X102.520 Y95.780 E10.78603
G1 X107.217 Y95.780 E11.23790
G1 X107.217 Y94.623 E11.34923
G1 X102.520 Y94.623 E11.80110
G1 X102.520 Y93.466 E11.91242
G1 X107.217 Y93.466 E12.36429
G1 X107.217 Y92.309 E12.47562
G1 X102.520 Y92.309 E12.92749
G1 X102.520 Y91.152 E13.03881
G1 X107.217 Y91.152 E13.49068
G1 X107.217 Y89.995 E13.60201
G1 X102.520 Y89.995 E14.05388
G1 X102.520 Y88.838 E14.16520
G1 X107.217 Y88.838 E14.61708
G1 X107.217 Y87.681 E14.72840
G1 X102.520 Y87.681 E15.18027
G1 X102.520 Y86.523 E15.29160
G1 X107.217 Y86.523 E15.74347
G1 X107.217 Y85.366 E15.85479
G1 X102.520 Y85.366 E16.30666
G1 X102.520 Y84.209 E16.41799
G1 X107.217 Y84.209 E16.86986
G1 X107.217 Y83.052 E16.98118
G1 X102.520 Y83.052 E17.43305
G1 X102.520 Y81.895 E17.54438
G1 X107.217 Y81.895 E17.99625
G1 X107.217 Y80.738 E18.10757
G1 X102.520 Y80.738 E18.55944
G1 X102.520 Y79.581 E18.67077
G1 X107.217 Y79.581 E19.12264
G1 X107.217 Y78.424 E19.23396
G1 X102.520 Y78.424 E19.68584
G1 X102.520 Y77.267 E19.79716
G1 X107.217 Y77.267 E20.24903
G1 X107.217 Y76.110 E20.36036
G1 X102.520 Y76.110 E20.81223
G1 X102.520 Y74.953 E20.92355
G1 X107.217 Y74.953 E21.37542
G1 X107.217 Y73.796 E21.48675
G1 X102.520 Y73.796 E21.93862
G1 X102.520 Y72.639 E22.04994
G1 X107.217 Y72.639 E22.50181
G1 X107.217 Y71.481 E22.61314
G1 X102.520 Y71.481 E23.06501
G1 X102.520 Y70.324 E23.17633
G1 X107.217 Y70.324 E23.62820
G1 X107.217 Y69.167 E23.73953
G1 X102.520 Y69.167 E24.19140
G1 X102.520 Y68.010 E24.30272
G1 X107.217 Y68.010 E24.75460
G1 X107.217 Y66.853 E24.86592
G1 X102.520 Y66.853 E25.31779
G1 X102.520 Y65.696 E25.42912
G1 X107.217 Y65.696 E25.88099
G1 X107.217 Y64.539 E25.99231
G1 X102.520 Y64.539 E26.44418
G1 X102.520 Y63.382 E26.55551
G1 X107.217 Y63.382 E27.00738
G1 X107.217 Y62.225 E27.11870
G1 X102.520 Y62.225 E27.57057
G1 X102.520 Y61.068 E27.68190
G1 X107.217 Y61.068 E28.13377
G1 X107.217 Y59.911 E28.24509
G1 X102.520 Y59.911 E28.69696
G1 X102.520 Y58.754 E28.80829
G1 X107.217 Y58.754 E29.26016
G1 X107.217 Y57.597 E29.37148
G1 X102.520 Y57.597 E29.82336
G1 X102.520 Y56.439 E29.93468
G1 X107.217 Y56.439 E30.38655
G1 X107.217 Y55.282 E30.49788
G1 X102.520 Y55.282 E30.94975
G1 X102.520 Y54.125 E31.06107
G1 X107.217 Y54.125 E31.51294
G1 X107.217 Y52.968 E31.62427
G1 X102.520 Y52.968 E32.07614
G1 X102.520 Y51.811 E32.18746
G1 X107.217 Y51.811 E32.63933
G1 X107.217 Y50.654 E32.75066
G1 X102.520 Y50.654 E33.20253
G1 X102.520 Y49.497 E33.31385
G1 X107.217 Y49.497 E33.76573
G1 X107.217 Y48.340 E33.87705
G1 X102.520 Y48.340 E34.32892
G1 X102.520 Y47.183 E34.44025
G1 X107.217 Y47.183 E34.89212
G1 X107.887 Y46.026 E35.02077
G1 X102.615 Y46.026 E35.52797
G1 X102.778 Y44.869 E35.64038
G1 X109.050 Y44.869 E36.24384
G1 X110.746 Y43.712 E36.44135
G1 X103.016 Y43.712 E37.18506
G1 X103.424 Y42.554 E37.30313
G1 X113.078 Y42.554 E38.23196
G1 X114.736 Y41.397 E38.42647
G1 X103.829 Y41.397 E39.47587
G1 X103.829 Y40.240 E39.58719
G1 X114.736 Y40.240 E40.63659
G1 X114.736 Y39.083 E40.74791
G1 X103.829 Y39.083 E41.79730
G1 X103.829 Y37.926 E41.90863
G1 X114.736 Y37.926 E42.95802
G1 X114.736 Y36.769 E43.06935
G1 X103.829 Y36.769 E44.11874
G1 X103.829 Y35.612 E44.23007
G1 X114.736 Y35.612 E45.27946
G1 X114.736 Y34.455 E45.39079
G1 X103.829 Y34.455 E46.44018
G1 X103.829 Y33.298 E46.55150
G1 X114.736 Y33.298 E47.60090
G1 X114.736 Y32.141 E47.71222
G1 X103.829 Y32.141 E48.76162
G1 X100.544 Y33.297 F7800.000
G1 X101.176 Y33.929 F1080.000 E48.84766
G1 X101.176 Y34.748 E48.92647
G1 X99.725 Y33.297 E49.12396
G1 X98.907 Y33.297 E49.20277
G1 X101.176 Y35.566 E49.51173
G1 X101.176 Y36.385 E49.59054
G1 X98.824 Y34.033 E49.91077
G1 X98.824 Y34.852 E49.98958
G1 X101.176 Y37.204 E50.30982
G1 X101.176 Y38.022 E50.38863
G1 X98.824 Y35.670 E50.70886
G1 X98.824 Y36.489 E50.78767
G1 X101.176 Y38.841 E51.10791
G1 X101.176 Y39.660 E51.18672
G1 X98.824 Y37.308 E51.50696
G1 X98.824 Y38.126 E51.58577
G1 X101.176 Y40.478 E51.90600
