; generated by Slic3r 0.9.10b on 2013-08-21 at 23:28:48

; layer_height = 0.4
; perimeters = 3
; top_solid_layers = 3
; bottom_solid_layers = 3
; fill_density = 0.4
; perimeter_speed = 30
; infill_speed = 60
; travel_speed = 130
; nozzle_diameter = 0.5
; filament_diameter = 1.75
; extrusion_multiplier = 1
; perimeters extrusion width = 0.53mm
; infill extrusion width = 0.53mm
; solid infill extrusion width = 0.53mm
; top infill extrusion width = 0.53mm
; first layer extrusion width = 0.60mm

G21 ; set units to millimeters
M107
M190 S65 ; wait for bed temperature to be reached
M104 S215 ; set temperature
G28 ; home all axes
G1 Z5 F5000 ; lift nozzle
M109 S215 ; wait for temperature to be reached
G90 ; use absolute coordinates
G92 E0
M82 ; use absolute distances for extrusion
G1 F1800.000 E-1.50000
G92 E0
G1 Z0.400 F7800.000
G1 X88.170 Y71.173
G1 F1800.000 E1.50000
G1 X89.190 Y69.913 F540.000 E1.65597
G1 X89.630 Y69.413 E1.72005
G1 X90.130 Y68.963 E1.78477
G1 X91.350 Y67.963 E1.93654
G1 X91.870 Y67.583 E1.99850
G1 X92.430 Y67.243 E2.06154
G1 X93.820 Y66.503 E2.21304
G1 X94.390 Y66.233 E2.27372
G1 X94.990 Y66.023 E2.33488
G1 X96.500 Y65.563 E2.48675
G1 X97.140 Y65.403 E2.55023
G1 X97.780 Y65.303 E2.61255
G1 X99.320 Y65.153 E2.76141
G1 X99.990 Y65.123 E2.82594
G1 X100.610 Y65.153 E2.88566
G1 X102.190 Y65.303 E3.03836
G1 X102.850 Y65.403 E3.10258
G1 X103.490 Y65.563 E3.16605
G1 X105.000 Y66.023 E3.31793
G1 X105.600 Y66.233 E3.37909
G1 X106.170 Y66.503 E3.43977
G1 X107.560 Y67.243 E3.59127
G1 X108.120 Y67.583 E3.65430
G1 X108.640 Y67.963 E3.71627
G1 X109.860 Y68.963 E3.86804
G1 X110.340 Y69.403 E3.93069
G1 X110.780 Y69.883 E3.99334
G1 X111.780 Y71.103 E4.14511
G1 X112.160 Y71.623 E4.20707
G1 X112.500 Y72.183 E4.27010
G1 X113.240 Y73.573 E4.42161
G1 X113.510 Y74.143 E4.48229
G1 X113.720 Y74.743 E4.54345
G1 X114.180 Y76.253 E4.69532
G1 X114.340 Y76.893 E4.75879
G1 X114.440 Y77.543 E4.82207
G1 X114.590 Y79.113 E4.97381
G1 X114.620 Y79.743 E5.03449
G1 X114.620 Y120.243 E8.93106
G1 X114.590 Y120.873 E8.99174
G1 X114.440 Y122.443 E9.14348
G1 X114.340 Y123.093 E9.20675
G1 X114.180 Y123.733 E9.27022
G1 X113.720 Y125.243 E9.42209
G1 X113.510 Y125.843 E9.48325
G1 X113.240 Y126.413 E9.54394
G1 X112.500 Y127.803 E9.69544
G1 X112.160 Y128.373 E9.75930
G1 X111.770 Y128.893 E9.82183
G1 X110.740 Y130.143 E9.97767
G1 X110.300 Y130.623 E10.04032
G1 X109.820 Y131.063 E10.10296
G1 X108.630 Y132.033 E10.25067
G1 X108.130 Y132.403 E10.31052
G1 X107.590 Y132.723 E10.37091
G1 X106.200 Y133.473 E10.52287
G1 X105.610 Y133.753 E10.58570
G1 X105.000 Y133.973 E10.64809
G1 X103.490 Y134.433 E10.79996
G1 X102.850 Y134.593 E10.86343
G1 X102.190 Y134.693 E10.92766
G1 X100.610 Y134.843 E11.08035
G1 X99.990 Y134.873 E11.14008
G1 X99.360 Y134.843 E11.20076
G1 X97.790 Y134.693 E11.35250
G1 X97.140 Y134.593 E11.41577
G1 X96.500 Y134.433 E11.47924
G1 X94.990 Y133.973 E11.63111
G1 X94.380 Y133.753 E11.69350
G1 X93.790 Y133.473 E11.75633
G1 X92.400 Y132.723 E11.90829
G1 X91.860 Y132.393 E11.96918
G1 X91.350 Y132.023 E12.02980
G1 X90.130 Y131.023 E12.18157
G1 X89.650 Y130.583 E12.24422
G1 X89.210 Y130.103 E12.30687
G1 X88.210 Y128.883 E12.45864
G1 X87.830 Y128.363 E12.52061
G1 X87.490 Y127.803 E12.58364
G1 X86.750 Y126.413 E12.73514
G1 X86.480 Y125.843 E12.79582
G1 X86.270 Y125.243 E12.85698
G1 X85.810 Y123.733 E13.00886
G1 X85.650 Y123.093 E13.07233
G1 X85.550 Y122.443 E13.13560
G1 X85.400 Y120.873 E13.28734
G1 X85.370 Y120.243 E13.34802
G1 X85.370 Y79.753 E17.24363
G1 X85.400 Y79.133 E17.30335
G1 X85.550 Y77.553 E17.45605
G1 X85.650 Y76.893 E17.52027
G1 X85.810 Y76.253 E17.58374
G1 X86.270 Y74.743 E17.73561
G1 X86.480 Y74.143 E17.79677
G1 X86.760 Y73.563 E17.85874
G1 X87.480 Y72.213 E18.00594
G1 X87.800 Y71.683 E18.06551
G1 X88.119 Y71.243 E18.11778
G1 F1800.000 E16.61778
G92 E0
G1 X95.118 Y76.490 F7800.000
G1 F1800.000 E1.50000
G1 X95.848 Y75.600 F540.000 E1.61075
G1 X96.738 Y74.870 E1.72150
G1 X97.753 Y74.328 E1.83225
G1 X98.854 Y73.993 E1.94300
G1 X100.000 Y73.881 E2.05375
G1 X101.146 Y73.993 E2.16450
G1 X102.247 Y74.328 E2.27526
G1 X103.262 Y74.870 E2.38601
G1 X104.152 Y75.600 E2.49676
G1 X104.882 Y76.490 E2.60751
G1 X105.425 Y77.505 E2.71826
G1 X105.759 Y78.607 E2.82901
G1 X105.872 Y79.753 E2.93976
G1 X105.759 Y80.898 E3.05051
G1 X105.425 Y82.000 E3.16126
G1 X104.882 Y83.015 E3.27201
G1 X104.152 Y83.905 E3.38276
G1 X103.262 Y84.635 E3.49351
G1 X102.247 Y85.178 E3.60426
G1 X101.146 Y85.512 E3.71501
G1 X100.000 Y85.625 E3.82576
G1 X98.854 Y85.512 E3.93651
G1 X97.753 Y85.178 E4.04726
G1 X96.738 Y84.635 E4.15801
G1 X95.848 Y83.905 E4.26877
G1 X95.118 Y83.015 E4.37952
G1 X94.371 Y81.618 E4.53194
G1 X94.459 Y81.618 E4.54044
G1 X94.241 Y80.898 E4.61278
G1 X94.128 Y79.753 E4.72353
G1 X94.241 Y78.607 E4.83428
G1 X94.575 Y77.505 E4.94503
G1 X95.077 Y76.567 E5.04743
G1 X95.577 Y76.859 F7800.000
G1 X96.259 Y76.012 F540.000 E5.15209
G1 X97.061 Y75.354 E5.25188
G1 X97.975 Y74.865 E5.35167
G1 X98.968 Y74.564 E5.45145
G1 X100.000 Y74.462 E5.55124
G1 X101.032 Y74.564 E5.65102
G1 X102.025 Y74.865 E5.75081
G1 X102.939 Y75.354 E5.85060
G1 X103.741 Y76.012 E5.95038
G1 X104.399 Y76.813 E6.05017
G1 X104.888 Y77.728 E6.14995
G1 X105.189 Y78.720 E6.24974
G1 X105.291 Y79.753 E6.34953
G1 X105.189 Y80.785 E6.44931
G1 X104.888 Y81.777 E6.54910
G1 X104.399 Y82.692 E6.64889
G1 X103.741 Y83.494 E6.74867
G1 X102.939 Y84.152 E6.84846
G1 X102.025 Y84.641 E6.94824
G1 X101.032 Y84.942 E7.04803
G1 X100.000 Y85.043 E7.14781
G1 X98.968 Y84.942 E7.24760
G1 X97.975 Y84.641 E7.34739
G1 X97.061 Y84.152 E7.44717
G1 X96.259 Y83.494 E7.54696
G1 X95.601 Y82.692 E7.64674
G1 X95.112 Y81.777 E7.74653
G1 X94.811 Y80.785 E7.84632
G1 X94.709 Y79.753 E7.94610
G1 X94.811 Y78.720 E8.04589
G1 X95.112 Y77.728 E8.14568
G1 X95.536 Y76.935 E8.23215
G1 X96.153 Y76.912 F7800.000
G1 F1800.000 E6.73215
G92 E0
G1 X100.000 Y114.375 F7800.000
G1 F1800.000 E1.50000
G1 X101.145 Y114.488 F540.000 E1.61073
G1 X102.247 Y114.822 E1.72150
G1 X103.262 Y115.365 E1.83225
G1 X104.152 Y116.095 E1.94300
G1 X104.882 Y116.985 E2.05375
G1 X105.425 Y118.000 E2.16450
G1 X105.759 Y119.102 E2.27526
G1 X105.872 Y120.247 E2.38600
G1 X105.759 Y121.393 E2.49676
G1 X105.425 Y122.494 E2.60750
G1 X104.882 Y123.510 E2.71826
G1 X104.152 Y124.400 E2.82901
G1 X103.262 Y125.130 E2.93976
G1 X102.247 Y125.672 E3.05051
G1 X101.146 Y126.007 E3.16126
G1 X100.000 Y126.119 E3.27201
G1 X98.854 Y126.007 E3.38275
G1 X97.753 Y125.672 E3.49350
G1 X96.738 Y125.130 E3.60426
G1 X95.848 Y124.400 E3.71501
G1 X95.118 Y123.510 E3.82576
G1 X94.575 Y122.495 E3.93651
G1 X94.241 Y121.393 E4.04726
G1 X94.128 Y120.247 E4.15801
G1 X94.241 Y119.102 E4.26876
G1 X94.575 Y118.000 E4.37951
G1 X95.118 Y116.985 E4.49027
G1 X95.848 Y116.095 E4.60102
G1 X96.738 Y115.365 E4.71177
G1 X97.753 Y114.822 E4.82252
G1 X98.855 Y114.488 E4.93328
G1 X99.914 Y114.384 E5.03567
G1 X100.000 Y114.957 F7800.000
G1 X101.032 Y115.058 F540.000 E5.13545
G1 X102.025 Y115.359 E5.23524
G1 X102.939 Y115.848 E5.33503
G1 X103.741 Y116.506 E5.43481
G1 X104.399 Y117.308 E5.53460
G1 X104.888 Y118.223 E5.63439
G1 X105.189 Y119.215 E5.73417
G1 X105.291 Y120.247 E5.83396
G1 X105.189 Y121.280 E5.93375
G1 X104.888 Y122.272 E6.03353
G1 X104.399 Y123.187 E6.13332
G1 X103.741 Y123.988 E6.23310
G1 X102.939 Y124.646 E6.33289
G1 X102.025 Y125.135 E6.43268
G1 X101.032 Y125.436 E6.53246
G1 X100.000 Y125.538 E6.63225
G1 X98.968 Y125.436 E6.73203
G1 X97.975 Y125.135 E6.83182
G1 X97.061 Y124.646 E6.93160
G1 X96.259 Y123.988 E7.03139
G1 X95.601 Y123.187 E7.13118
G1 X95.112 Y122.272 E7.23096
G1 X94.811 Y121.280 E7.33075
G1 X94.709 Y120.247 E7.43053
G1 X94.811 Y119.215 E7.53032
G1 X95.112 Y118.223 E7.63011
G1 X95.601 Y117.308 E7.72989
G1 X96.259 Y116.506 E7.82968
G1 X97.061 Y115.848 E7.92947
G1 X97.975 Y115.359 E8.02925
G1 X98.968 Y115.058 E8.12904
G1 X99.914 Y114.965 E8.22047
G1 X100.273 Y115.467 F7800.000
G1 F1800.000 E6.72047
G92 E0
G1 X106.632 Y122.994 F7800.000
G1 F1800.000 E1.50000
G1 X105.968 Y124.235 F540.000 E1.63538
G1 X105.076 Y125.323 E1.77077
G1 X103.988 Y126.216 E1.90615
G1 X102.747 Y126.879 E2.04153
G1 X101.400 Y127.287 E2.17691
G1 X100.000 Y127.425 E2.31229
G1 X98.600 Y127.287 E2.44768
G1 X97.253 Y126.879 E2.58306
G1 X96.012 Y126.216 E2.71844
G1 X94.924 Y125.323 E2.85382
G1 X94.032 Y124.235 E2.98921
G1 X93.368 Y122.994 E3.12459
G1 X92.960 Y121.648 E3.25997
G1 X92.822 Y120.247 E3.39535
G1 X92.960 Y118.847 E3.53074
G1 X93.368 Y117.500 E3.66612
G1 X94.032 Y116.260 E3.80150
G1 X94.924 Y115.172 E3.93688
G1 X96.012 Y114.279 E4.07227
G1 X97.253 Y113.616 E4.20765
G1 X98.600 Y113.207 E4.34303
G1 X99.529 Y113.116 E4.43284
G1 X99.529 Y86.884 E6.95663
G1 X98.600 Y86.793 E7.04644
G1 X97.507 Y86.461 E7.15632
G1 X97.507 Y86.520 E7.16196
G1 X96.012 Y85.721 E7.32502
G1 X94.924 Y84.828 E7.46040
G1 X94.032 Y83.740 E7.59579
G1 X93.368 Y82.500 E7.73117
G1 X92.960 Y81.153 E7.86655
G1 X92.822 Y79.753 E8.00193
G1 X92.960 Y78.352 E8.13732
G1 X93.368 Y77.006 E8.27270
G1 X94.032 Y75.765 E8.40808
G1 X94.924 Y74.677 E8.54346
G1 X96.012 Y73.784 E8.67885
G1 X97.253 Y73.121 E8.81423
G1 X98.600 Y72.713 E8.94961
G1 X100.000 Y72.575 E9.08499
G1 X101.400 Y72.713 E9.22038
G1 X102.747 Y73.121 E9.35576
G1 X103.988 Y73.784 E9.49114
G1 X105.076 Y74.677 E9.62652
G1 X105.968 Y75.765 E9.76190
G1 X106.632 Y77.006 E9.89729
G1 X107.040 Y78.352 E10.03267
G1 X107.178 Y79.753 E10.16805
G1 X107.040 Y81.153 E10.30343
G1 X106.632 Y82.500 E10.43882
G1 X105.968 Y83.740 E10.57420
G1 X105.076 Y84.828 E10.70958
G1 X103.988 Y85.721 E10.84496
G1 X102.747 Y86.384 E10.98035
G1 X101.400 Y86.793 E11.11573
G1 X100.471 Y86.884 E11.20554
G1 X100.471 Y113.116 E13.72933
G1 X101.400 Y113.207 E13.81915
G1 X102.747 Y113.616 E13.95453
G1 X103.988 Y114.279 E14.08991
G1 X105.076 Y115.172 E14.22529
G1 X105.968 Y116.260 E14.36068
G1 X106.632 Y117.500 E14.49606
G1 X107.040 Y118.847 E14.63144
G1 X107.178 Y120.247 E14.76682
G1 X107.040 Y121.648 E14.90220
G1 X106.657 Y122.911 E15.02924
G1 X107.169 Y123.217 F7800.000
G1 X106.452 Y124.558 F378.000 E15.17559
G1 X105.487 Y125.734 E15.32193
G1 X104.311 Y126.699 E15.46828
G1 X102.969 Y127.416 E15.61463
G1 X101.514 Y127.858 E15.76097
G1 X100.000 Y128.007 E15.90732
G1 X98.486 Y127.858 E16.05367
G1 X97.031 Y127.416 E16.20001
G1 X95.689 Y126.699 E16.34636
G1 X94.513 Y125.734 E16.49271
G1 X93.548 Y124.558 E16.63905
G1 X92.831 Y123.217 E16.78540
G1 X92.390 Y121.761 E16.93175
G1 X92.241 Y120.247 E17.07809
G1 X92.390 Y118.734 E17.22444
G1 X92.831 Y117.278 E17.37079
G1 X93.548 Y115.937 E17.51713
G1 X94.513 Y114.761 E17.66348
G1 X95.689 Y113.796 E17.80983
G1 X97.031 Y113.079 E17.95618
G1 X98.486 Y112.637 E18.10252
G1 X98.950 Y112.591 E18.14737
G1 X98.950 Y87.409 E20.57026
G1 X98.486 Y87.363 E20.61510
G1 X97.031 Y86.921 E20.76145
G1 X95.689 Y86.204 E20.90780
G1 X94.513 Y85.239 E21.05415
G1 X93.548 Y84.063 E21.20049
G1 X92.831 Y82.722 E21.34684
G1 X92.390 Y81.266 E21.49319
G1 X92.241 Y79.753 E21.63953
G1 X92.390 Y78.239 E21.78588
G1 X92.831 Y76.783 E21.93223
G1 X93.548 Y75.442 E22.07857
G1 X94.513 Y74.266 E22.22492
G1 X95.689 Y73.301 E22.37127
G1 X97.031 Y72.584 E22.51761
G1 X98.486 Y72.142 E22.66396
G1 X100.000 Y71.993 E22.81031
G1 X101.514 Y72.142 E22.95666
G1 X102.969 Y72.584 E23.10300
G1 X104.311 Y73.301 E23.24935
G1 X105.487 Y74.266 E23.39570
G1 X106.452 Y75.442 E23.54204
G1 X107.169 Y76.783 E23.68839
G1 X107.610 Y78.239 E23.83474
G1 X107.759 Y79.753 E23.98108
G1 X107.610 Y81.266 E24.12743
G1 X107.169 Y82.722 E24.27378
G1 X106.452 Y84.063 E24.42012
G1 X105.487 Y85.239 E24.56647
G1 X104.311 Y86.204 E24.71282
G1 X102.969 Y86.921 E24.85916
G1 X101.514 Y87.363 E25.00551
G1 X101.050 Y87.409 E25.05036
G1 X101.050 Y112.591 E27.47325
G1 X101.514 Y112.637 E27.51809
G1 X102.969 Y113.079 E27.66444
G1 X104.311 Y113.796 E27.81079
G1 X105.487 Y114.761 E27.95713
G1 X106.452 Y115.937 E28.10348
G1 X107.169 Y117.278 E28.24983
G1 X107.610 Y118.734 E28.39617
G1 X107.759 Y120.247 E28.54252
G1 X107.610 Y121.761 E28.68887
G1 X107.194 Y123.134 E28.82687
G1 X106.593 Y123.273 F7800.000
G1 F1800.000 E27.32687
G92 E0
G1 X96.391 Y125.750 F7800.000
G1 F1800.000 E1.50000
G1 X95.595 Y124.955 F360.000 E1.60882
G1 X95.293 Y124.652 F7800.000
G1 X94.497 Y123.856 F360.000 E1.71765
G1 X93.960 Y122.497 E1.85905
G1 X93.778 Y122.315 E1.88395
G1 X93.646 Y121.360 E1.97718
G1 X93.510 Y121.224 E1.99568
G1 X93.556 Y120.447 E2.07096
G1 X93.420 Y120.312 E2.08946
G1 X93.594 Y119.663 E2.15445
G1 X93.483 Y119.552 E2.16963
G1 X93.679 Y118.925 E2.23311
G1 X93.581 Y118.828 E2.24642
G1 X93.870 Y118.294 E2.30510
G1 X93.773 Y118.197 E2.31841
G1 X94.078 Y117.680 E2.37649
G1 X93.988 Y117.590 E2.38876
G1 X94.365 Y117.144 E2.44521
G1 X94.275 Y117.054 E2.45747
G1 X94.659 Y116.616 E2.51384
G1 X94.572 Y116.529 E2.52563
G1 X94.943 Y116.078 E2.58215
G1 X95.029 Y116.164 E2.59394
G1 X95.400 Y115.712 E2.65046
G1 X95.314 Y115.626 E2.66226
G1 X95.759 Y115.249 E2.71869
G1 X95.845 Y115.335 E2.73049
G1 X96.297 Y114.964 E2.78700
G1 X96.211 Y114.878 E2.79880
G1 X96.723 Y114.567 E2.85670
G1 X96.812 Y114.657 E2.86896
G1 X97.259 Y114.281 E2.92541
G1 X97.348 Y114.371 E2.93768
G1 X97.850 Y114.050 E2.99528
G1 X97.948 Y114.148 E3.00859
G1 X98.481 Y113.859 E3.06727
G1 X98.579 Y113.956 E3.08058
G1 X99.186 Y113.742 E3.14292
G1 X99.298 Y113.853 E3.15811
G1 X99.935 Y113.668 E3.22232
G1 X100.056 Y113.789 E3.23888
G1 X100.833 Y113.744 E3.31416
G1 X100.969 Y113.879 E3.33266
G1 X101.881 Y113.969 E3.42135
G1 X102.063 Y114.151 E3.44624
G1 X103.331 Y114.596 E3.57615
G1 X103.682 Y114.947 E3.62422
G1 X100.030 Y113.243 F7800.000
G1 X99.938 Y113.150 F360.000 E3.63068
G1 X100.062 Y112.855 E3.64649
G1 X99.938 Y112.730 E3.65517
G1 X100.062 Y112.435 E3.67098
G1 X99.938 Y112.311 E3.67966
G1 X100.062 Y112.016 E3.69546
G1 X99.938 Y111.891 E3.70414
G1 X100.062 Y111.596 E3.71995
G1 X99.938 Y111.472 E3.72863
G1 X100.062 Y111.176 E3.74444
G1 X99.938 Y111.052 E3.75312
G1 X100.062 Y110.757 E3.76893
G1 X99.938 Y110.632 E3.77761
G1 X100.062 Y110.337 E3.79341
G1 X99.938 Y110.213 E3.80209
G1 X100.062 Y109.918 E3.81790
G1 X99.938 Y109.793 E3.82658
G1 X100.062 Y109.498 E3.84239
G1 X99.938 Y109.374 E3.85107
G1 X100.062 Y109.078 E3.86688
G1 X99.938 Y108.954 E3.87556
G1 X100.062 Y108.659 E3.89136
G1 X99.938 Y108.534 E3.90004
G1 X100.062 Y108.239 E3.91585
G1 X99.938 Y108.115 E3.92453
G1 X100.062 Y107.819 E3.94034
G1 X99.938 Y107.695 E3.94902
G1 X100.062 Y107.400 E3.96483
G1 X99.938 Y107.275 E3.97351
G1 X100.062 Y106.980 E3.98931
G1 X99.938 Y106.856 E3.99799
G1 X100.062 Y106.561 E4.01380
G1 X99.938 Y106.436 E4.02248
G1 X100.062 Y106.141 E4.03829
G1 X99.938 Y106.017 E4.04697
G1 X100.062 Y105.721 E4.06278
G1 X99.938 Y105.597 E4.07146
G1 X100.062 Y105.302 E4.08727
G1 X99.938 Y105.177 E4.09594
G1 X100.062 Y104.882 E4.11175
G1 X99.938 Y104.758 E4.12043
G1 X100.062 Y104.462 E4.13624
G1 X99.938 Y104.338 E4.14492
G1 X100.062 Y104.043 E4.16073
G1 X99.938 Y103.918 E4.16941
G1 X100.062 Y103.623 E4.18522
G1 X99.938 Y103.499 E4.19389
G1 X100.062 Y103.204 E4.20970
G1 X99.938 Y103.079 E4.21838
G1 X100.062 Y102.784 E4.23419
G1 X99.938 Y102.660 E4.24287
G1 X100.062 Y102.364 E4.25868
G1 X99.938 Y102.240 E4.26736
G1 X100.062 Y101.945 E4.28317
G1 X99.938 Y101.820 E4.29185
G1 X100.062 Y101.525 E4.30765
G1 X99.938 Y101.401 E4.31633
G1 X100.062 Y101.106 E4.33214
G1 X99.938 Y100.981 E4.34082
G1 X100.062 Y100.686 E4.35663
G1 X99.938 Y100.562 E4.36531
G1 X100.062 Y100.266 E4.38112
G1 X99.938 Y100.142 E4.38980
G1 X100.062 Y99.847 E4.40561
G1 X99.938 Y99.722 E4.41428
G1 X100.062 Y99.427 E4.43009
G1 X99.938 Y99.303 E4.43877
G1 X100.062 Y99.007 E4.45458
G1 X99.938 Y98.883 E4.46326
G1 X100.062 Y98.588 E4.47907
G1 X99.938 Y98.463 E4.48775
G1 X100.062 Y98.168 E4.50356
G1 X99.938 Y98.044 E4.51224
G1 X100.062 Y97.749 E4.52804
G1 X99.938 Y97.624 E4.53672
G1 X100.062 Y97.329 E4.55253
G1 X99.938 Y97.205 E4.56121
G1 X100.062 Y96.909 E4.57702
G1 X99.938 Y96.785 E4.58570
G1 X100.062 Y96.490 E4.60151
G1 X99.938 Y96.365 E4.61019
G1 X100.062 Y96.070 E4.62599
G1 X99.938 Y95.946 E4.63467
G1 X100.062 Y95.651 E4.65048
G1 X99.938 Y95.526 E4.65916
G1 X100.062 Y95.231 E4.67497
G1 X99.938 Y95.107 E4.68365
