; generated by Slic3r 1.0.0RC1 on 2014-03-25 at 12:23:38

; layer_height = 0.4
; perimeters = 3
; top_solid_layers = 3
; bottom_solid_layers = 3
; fill_density = 0.6
; perimeter_speed = 30
; infill_speed = 60
; travel_speed = 130
; nozzle_diameter = 0.5
; filament_diameter = 1.75
; extrusion_multiplier = 1
; perimeters extrusion width = 0.50mm
; infill extrusion width = 0.53mm
; solid infill extrusion width = 0.53mm
; top infill extrusion width = 0.53mm
; support material extrusion width = 0.50mm
; first layer extrusion width = 0.60mm

G21 ; set units to millimeters
M107
M190 S65 ; wait for bed temperature to be reached
M104 S230 ; set temperature
G28 ; home all axes
G1 Z5 F5000 ; lift nozzle
M109 S230 ; wait for temperature to be reached
G90 ; use absolute coordinates
G92 E0
M82 ; use absolute distances for extrusion
G1 F1800.000 E-1.50000
G92 E0
G1 Z0.400 F7800.000
G1 X41.908 Y80.465 F7800.000
G1 E1.50000 F1800.000
G1 X43.148 Y80.095 E1.62450 F540.000
G1 X44.428 Y79.965 E1.74828
G1 X50.318 Y79.975 E2.31497
G1 X151.138 Y85.765 E12.03100
G1 X152.808 Y86.085 E12.19460
G1 X154.338 Y86.815 E12.35770
G1 X156.108 Y87.965 E12.56078
G1 X156.698 Y88.405 E12.63159
G1 X157.238 Y88.895 E12.70175
G1 X158.368 Y90.055 E12.85756
G1 X158.768 Y90.495 E12.91477
G1 X159.118 Y90.975 E12.97192
G1 X159.898 Y92.135 E13.10641
G1 X160.328 Y92.885 E13.18959
G1 X160.898 Y94.035 E13.31308
G1 X161.308 Y95.055 E13.41885
G1 X161.658 Y96.215 E13.53542
G1 X161.878 Y97.275 E13.63958
G1 X162.028 Y98.435 E13.75211
G1 X162.088 Y99.165 E13.82258
G1 X162.108 Y100.325 E13.93421
G1 X162.078 Y101.005 E13.99969
G1 X161.978 Y102.155 E14.11075
G1 X161.898 Y102.805 E14.17376
G1 X161.738 Y103.435 E14.23630
G1 X161.398 Y104.595 E14.35260
G1 X161.148 Y105.305 E14.42502
G1 X160.658 Y106.465 E14.54618
G1 X160.198 Y107.365 E14.64342
G1 X159.488 Y108.515 E14.77345
G1 X158.848 Y109.375 E14.87659
G1 X157.838 Y110.535 E15.02457
G1 X157.328 Y111.055 E15.09465
G1 X156.768 Y111.515 E15.16438
G1 X155.188 Y112.675 E15.35296
G1 X154.208 Y113.275 E15.46352
G1 X153.138 Y113.695 E15.57411
G1 X149.158 Y114.855 E15.97296
G1 X148.398 Y115.025 E16.04789
G1 X147.628 Y115.105 E16.12237
G1 X50.538 Y119.725 E25.47412
G1 X44.428 Y119.735 E26.06198
G1 X43.148 Y119.605 E26.18576
G1 X41.908 Y119.235 E26.31026
G1 X40.778 Y118.625 E26.43381
G1 X39.778 Y117.805 E26.55823
G1 X38.958 Y116.805 E26.68265
G1 X38.348 Y115.675 E26.80620
G1 X37.978 Y114.435 E26.93070
G1 X37.848 Y113.155 E27.05449
G1 X37.848 Y86.545 E29.61468
G1 X37.978 Y85.265 E29.73846
G1 X38.348 Y84.025 E29.86296
G1 X38.958 Y82.895 E29.98651
G1 X39.778 Y81.895 E30.11093
G1 X40.778 Y81.075 E30.23535
G1 X41.832 Y80.506 E30.35055
G1 F1800.000 E28.85055
G92 E0
G1 X46.856 Y101.803 F7800.000
G1 E1.50000 F1800.000
G1 X46.856 Y98.197 E1.84689 F540.000
G1 X47.684 Y98.197 E1.92646
G1 X47.992 Y100.000 E2.10242
G1 X47.684 Y101.803 E2.27837
G1 X46.943 Y101.803 E2.34960
G1 X46.278 Y102.381 F7800.000
G1 X46.278 Y97.619 E2.80781 F540.000
G1 X48.172 Y97.619 E2.99000
G1 X48.578 Y100.000 E3.22243
G1 X48.172 Y102.381 E3.45486
G1 X46.365 Y102.381 E3.62870
G1 X46.567 Y101.880 F7800.000
G1 X47.249 Y101.377 F7800.000
G1 X47.412 Y101.063 E3.64851 F360.000
G1 X47.249 Y100.900 E3.66142 F360.000
G1 X47.481 Y100.656 E3.68031 F360.000
G1 X47.249 Y100.424 E3.69873 F360.000
G1 X47.551 Y100.249 E3.71828 F360.000
G1 X47.249 Y99.947 E3.74221 F360.000
G1 X47.555 Y99.777 E3.76185 F360.000
G1 X47.249 Y99.470 E3.78612 F360.000
G1 X47.457 Y99.202 E3.80516 F360.000
G1 X47.249 Y98.994 E3.82166 F360.000
G1 X47.359 Y98.627 E3.84311 F360.000
G1 X47.321 Y98.590 E3.84608 F360.000
G1 X47.249 Y101.377 F7800.000
G1 X47.283 Y101.410 E3.84875 F360.000
G1 F1800.000 E2.34875
G92 E0
G1 X45.478 Y102.750 F7800.000
G1 E1.50000 F1800.000
G1 X44.420 Y102.750 E1.60177 F1080.000
G1 X44.420 Y101.593 E1.71309
G1 X45.478 Y101.593 E1.81486
G1 X45.478 Y100.436 E1.92619
G1 X44.420 Y100.436 E2.02795
G1 X44.420 Y99.279 E2.13928
G1 X45.478 Y99.279 E2.24104
G1 X45.478 Y98.122 E2.35237
G1 X44.420 Y98.122 E2.45413
G1 X44.420 Y96.965 E2.56546
G1 X45.478 Y96.965 E2.66722
G1 X44.420 Y95.808 F7800.000
G1 X45.786 Y95.808 E2.79861 F1080.000
G1 X44.420 Y94.650 E2.97083
G1 X153.659 Y94.650 E13.48087
G1 X152.530 Y93.493 E13.63639
G1 X44.420 Y93.493 E24.03787
G1 X44.420 Y92.336 E24.14919
G1 X56.521 Y92.336 E25.31344
G1 F1800.000 E23.81344
G92 E0
G1 X53.996 Y91.179 F7800.000
G1 E1.50000 F1800.000
G1 X53.935 Y91.179 E1.50581 F1080.000
G1 X53.190 Y91.179 F7800.000
G1 X44.420 Y91.179 E2.34957 F1080.000
G1 X44.420 Y90.022 E2.46090
G1 X52.794 Y90.022 E3.26663
G1 X52.318 Y88.865 E3.38700
G1 X44.420 Y88.865 E4.14694
G1 X44.420 Y87.708 E4.25827
G1 X51.131 Y87.708 E4.90392
G1 X49.943 Y86.551 E5.06345
G1 X44.420 Y86.551 E5.59483
G1 F1800.000 E4.09483
G92 E0
G1 X49.504 Y102.750 F7800.000
G1 E1.50000 F1800.000
G1 X103.985 Y102.750 E6.74170 F1080.000
G1 X102.998 Y101.593 E6.88804
G1 X49.722 Y101.593 E12.01382
G1 X49.919 Y100.436 E12.12675
G1 X102.630 Y100.436 E17.19816
G1 X102.669 Y99.279 E17.30954
G1 X49.871 Y99.279 E22.38935
G1 X49.673 Y98.122 E22.50229
G1 X103.150 Y98.122 E27.64743
G1 X104.450 Y96.965 E27.81485
G1 X49.373 Y96.965 E33.11388
G1 X48.842 Y95.808 E33.23639
G1 X154.447 Y95.808 E43.39681
G1 X155.009 Y96.965 E43.52059
G1 X148.594 Y96.965 E44.13777
G1 X149.894 Y98.122 E44.30518
G1 X155.360 Y98.122 E44.83109
G1 X155.516 Y99.279 E44.94343
G1 X150.375 Y99.279 E45.43808
G1 X150.414 Y100.436 E45.54947
G1 X155.529 Y100.436 E46.04165
G1 X155.431 Y101.593 E46.15338
G1 X150.046 Y101.593 E46.67140
G1 X149.059 Y102.750 E46.81774
G1 X155.096 Y102.750 E47.39852
G1 X154.599 Y103.907 E47.51966
G1 X48.973 Y103.907 E57.68215
G1 F1800.000 E56.18215
G92 E0
G1 X45.786 Y103.907 F7800.000
G1 E1.50000 F1800.000
G1 X44.420 Y103.907 E1.63140 F1080.000
G1 X44.420 Y105.064 E1.74272
G1 X153.893 Y105.064 E12.27531
G1 X152.878 Y106.221 E12.42341
G1 X44.420 Y106.221 E22.85833
G1 F1800.000 E21.35833
G92 E0
G1 X50.236 Y113.164 F7800.000
G1 E1.50000 F1800.000
G1 X44.420 Y113.164 E2.05956 F1080.000
G1 X44.420 Y112.007 E2.17088
G1 X51.424 Y112.007 E2.84471
G1 X52.611 Y110.850 E3.00425
G1 X44.420 Y110.850 E3.79235
G1 X44.420 Y109.692 E3.90368
G1 X52.531 Y109.692 E4.68408
G1 X53.454 Y108.535 E4.82647
G1 X44.420 Y108.535 E5.69566
G1 X44.420 Y107.378 E5.80699
G1 X57.576 Y107.378 E7.07271
G1 F1800.000 E5.57271
G92 E0
G1 X54.250 Y108.535 F7800.000
G1 E1.50000 F1800.000
G1 X53.575 Y108.535 E1.56492 F1080.000
G1 F1800.000 E0.06492
G92 E0
G1 X101.743 Y107.378 F7800.000
G1 E1.50000 F1800.000
G1 X110.301 Y107.378 E2.32335 F1080.000
G1 F1800.000 E0.82335
G92 E0
G1 X106.326 Y108.535 F7800.000
G1 E1.50000 F1800.000
G1 X105.718 Y108.535 E1.55857 F1080.000
G1 F1800.000 E0.05857
G92 E0
G1 X108.059 Y102.750 F7800.000
G1 E1.50000 F1800.000
G1 X144.985 Y102.750 E5.05271 F1080.000
G1 X143.998 Y101.593 E5.19905
G1 X109.046 Y101.593 E8.56179
G1 X109.414 Y100.436 E8.67859
G1 X143.630 Y100.436 E11.97063
G1 X143.669 Y99.279 E12.08201
G1 X109.375 Y99.279 E15.38148
G1 X108.894 Y98.122 E15.50205
G1 X144.150 Y98.122 E18.89414
G1 X145.450 Y96.965 E19.06155
G1 X107.594 Y96.965 E22.70371
G1 F1800.000 E21.20371
G92 E0
G1 X109.767 Y92.336 F7800.000
G1 E1.50000 F1800.000
G1 X102.277 Y92.336 E2.22062 F1080.000
G1 F1800.000 E0.72062
G92 E0
G1 X143.277 Y92.336 F7800.000
G1 E1.50000 F1800.000
G1 X150.767 Y92.336 E2.22063 F1080.000
G1 F1800.000 E0.72063
G92 E0
G1 X151.301 Y107.378 F7800.000
G1 E1.50000 F1800.000
G1 X142.743 Y107.378 E2.32335 F1080.000
G1 F1800.000 E0.82335
G92 E0
G1 X146.718 Y108.535 F7800.000
G1 E1.50000 F1800.000
G1 X147.326 Y108.535 E1.55857 F1080.000
M106 S255
G1 F1800.000 E0.05857
G92 E0
G1 Z0.450 F7800.000
G1 X144.956 Y107.855 F7800.000
G1 E1.50000 F1800.000
G1 X144.956 Y103.234 E1.54803 F2099.527
G1 X147.956 Y103.715 F7800.000
G1 X147.956 Y108.064 E1.59323 F2099.527
G1 X150.956 Y107.100 E1.62598
G1 X150.956 Y92.900 E1.77358
G1 X147.956 Y91.936 E1.80633
G1 X147.956 Y96.285 E1.85153
G1 X147.022 Y96.507 F7800.000
G1 X147.704 Y96.574 E1.85865 F2099.527
G1 X148.359 Y96.773 E1.86576
G1 X148.963 Y97.096 E1.87288
G1 X149.492 Y97.530 E1.87999
G1 X149.926 Y98.060 E1.88711
G1 X150.249 Y98.663 E1.89423
G1 X150.448 Y99.319 E1.90134
G1 X150.515 Y100.000 E1.90846
G1 X150.448 Y100.681 E1.91558
G1 X150.249 Y101.337 E1.92269
G1 X149.926 Y101.940 E1.92981
G1 X149.492 Y102.470 E1.93693
G1 X148.963 Y102.904 E1.94404
G1 X148.359 Y103.227 E1.95116
G1 X147.704 Y103.426 E1.95828
G1 X147.022 Y103.493 E1.96539
G1 X146.341 Y103.426 E1.97251
G1 X145.686 Y103.227 E1.97963
G1 X145.082 Y102.904 E1.98674
G1 X144.552 Y102.470 E1.99386
G1 X144.118 Y101.940 E2.00098
G1 X143.795 Y101.337 E2.00809
G1 X143.596 Y100.681 E2.01521
G1 X143.529 Y100.000 E2.02233
G1 X143.596 Y99.319 E2.02944
G1 X143.795 Y98.663 E2.03656
G1 X144.118 Y98.060 E2.04368
G1 X144.552 Y97.530 E2.05079
G1 X145.082 Y97.096 E2.05791
G1 X145.686 Y96.773 E2.06503
G1 X146.341 Y96.574 E2.07214
G1 X147.022 Y96.507 E2.07926
G1 F1800.000 E0.57926
G92 E0
G1 X144.956 Y96.766 F7800.000
G1 E1.50000 F1800.000
G1 X144.956 Y92.145 E1.54803 F2099.527
G1 F1800.000 E0.04803
G92 E0
G1 X141.956 Y93.205 F7800.000
G1 E1.50000 F1800.000
G1 X141.956 Y106.795 E1.64125 F2099.527
G1 X138.956 Y106.795 E1.67243
G1 X138.956 Y93.205 E1.81368
G1 X135.956 Y93.205 E1.84486
G1 X135.956 Y106.795 E1.98611
G1 X132.956 Y106.795 E2.01729
G1 X132.956 Y93.205 E2.15854
G1 X129.956 Y93.205 E2.18972
G1 X129.956 Y106.795 E2.33097
G1 X126.956 Y106.795 E2.36215
G1 X126.956 Y93.205 E2.50340
G1 X123.956 Y93.205 E2.53458
G1 X123.956 Y106.795 E2.67583
G1 X120.956 Y106.795 E2.70701
G1 X120.956 Y93.205 E2.84826
G1 X117.956 Y93.205 E2.87944
G1 X117.956 Y106.795 E3.02069
G1 X114.956 Y106.795 E3.05187
G1 X114.956 Y93.205 E3.19312
G1 X111.956 Y93.205 E3.22430
G1 X111.956 Y106.795 E3.36555
G1 F1800.000 E1.86555
G92 E0
G1 X108.956 Y102.456 F7800.000
G1 E1.50000 F1800.000
G1 X108.956 Y107.592 E1.55338 F2099.527
G1 X105.956 Y108.149 E1.58509
G1 X105.956 Y103.838 E1.62990
G1 F1800.000 E0.12990
G92 E0
G1 X102.956 Y102.294 F7800.000
G1 E1.50000 F1800.000
G1 X102.956 Y107.551 E1.55464 F2099.527
G1 F1800.000 E0.05464
G92 E0
G1 X102.956 Y97.706 F7800.000
G1 E1.50000 F1800.000
G1 X102.956 Y92.449 E1.55464 F2099.527
G1 F1800.000 E0.05464
G92 E0
G1 X99.956 Y93.205 F7800.000
G1 E1.50000 F1800.000
G1 X99.956 Y106.795 E1.64125 F2099.527
G1 X96.956 Y106.795 E1.67243
G1 X96.956 Y93.205 E1.81368
G1 X93.956 Y93.205 E1.84486
G1 X93.956 Y106.795 E1.98611
G1 X90.956 Y106.795 E2.01729
G1 X90.956 Y93.205 E2.15854
G1 X87.956 Y93.205 E2.18972
G1 X87.956 Y106.795 E2.33097
G1 X84.956 Y106.795 E2.36215
G1 X84.956 Y93.205 E2.50340
G1 X81.956 Y93.205 E2.53458
G1 X81.956 Y106.795 E2.67583
G1 X78.956 Y106.795 E2.70701
G1 X78.956 Y93.205 E2.84826
G1 X75.956 Y93.205 E2.87944
G1 X75.956 Y106.795 E3.02069
G1 X72.956 Y106.795 E3.05187
G1 X72.956 Y93.205 E3.19312
G1 X69.956 Y93.205 E3.22430
G1 X69.956 Y106.795 E3.36555
G1 X66.956 Y106.795 E3.39673
G1 X66.956 Y93.205 E3.53798
G1 X63.956 Y93.205 E3.56916
G1 X63.956 Y106.795 E3.71041
G1 X60.956 Y106.795 E3.74159
G1 X60.956 Y93.205 E3.88284
G1 F1800.000 E2.38284
G92 E0
G1 X57.956 Y93.627 F7800.000
G1 E1.50000 F1800.000
G1 X57.956 Y106.373 E1.63247 F2099.527
G1 F1800.000 E0.13247
G92 E0
G1 X54.956 Y107.728 F7800.000
G1 E1.50000 F1800.000
G1 X54.956 Y92.272 E1.66065 F2099.527
G1 F1800.000 E0.16065
G92 E0
G1 X51.956 Y90.934 F7800.000
G1 E1.50000 F1800.000
G1 X51.956 Y109.066 E1.68847 F2099.527
G1 F1800.000 E0.18847
G92 E0
G1 X48.956 Y104.921 F7800.000
G1 E1.50000 F1800.000
G1 X48.956 Y113.753 E1.59180 F2099.527
G1 X45.956 Y113.753 F7800.000
G1 X45.956 Y105.240 E1.68029 F2099.527
G1 F1800.000 E0.18029
G92 E0
G1 X45.478 Y96.849 F7800.000
G1 E1.50000 F1800.000
G1 X44.478 Y96.849 E1.51039 F2099.527
G1 X44.478 Y103.151 E1.57590
G1 X45.478 Y103.151 E1.58629
G1 X45.478 Y96.849 E1.65179
G1 F1800.000 E0.15179
G92 E0
G1 X45.956 Y94.760 F7800.000
G1 E1.50000 F1800.000
G1 X45.956 Y86.097 E1.59005 F2099.527
G1 X48.956 Y86.158 E1.62123
G1 X48.956 Y95.079 E1.71395
G1 F1800.000 E0.21395
G92 E0
G1 X49.035 Y85.747 F7800.000
G1 E1.50000 F1800.000
G1 X44.478 Y85.747 E1.54736 F2099.527
G1 X44.478 Y96.610 E1.66027
G1 X45.728 Y96.610 E1.67327
G1 X45.728 Y95.110 E1.68886
G1 X48.585 Y95.110 E1.71855
G1 X49.592 Y97.302 E1.74362
G1 X50.053 Y100.000 E1.77207
G1 X49.592 Y102.698 E1.80052
G1 X48.585 Y104.890 E1.82559
G1 X45.728 Y104.890 E1.85529
G1 X45.728 Y103.390 E1.87088
G1 X44.478 Y103.390 E1.88387
G1 X44.478 Y114.253 E1.99678
G1 X49.035 Y114.253 E2.04414
G1 X52.748 Y110.636 E2.09803
G1 X52.114 Y110.636 E2.10462
G1 X52.748 Y110.018 E2.11381
G1 X52.114 Y110.018 E2.12040
G1 X52.748 Y109.401 E2.12960
G1 X52.114 Y109.401 E2.13619
G1 X52.427 Y109.096 E2.14073
G1 X52.670 Y109.296 E2.14400
G1 X53.500 Y108.401 E2.15668
G1 X53.964 Y108.770 E2.16284
G1 X54.686 Y107.960 E2.17412
G1 X55.123 Y108.309 E2.17993
G1 X55.729 Y107.633 E2.18937
G1 X56.148 Y107.979 E2.19502
G1 X56.888 Y107.185 E2.20631
G1 X57.333 Y107.554 E2.21232
G1 X58.087 Y106.745 E2.22380
G1 X58.532 Y107.114 E2.22981
G1 X59.067 Y106.540 E2.23797
G1 X59.384 Y106.540 E2.24126
G1 X59.120 Y106.780 E2.24497
G1 X58.671 Y107.145 E2.25099
G1 X101.429 Y107.145 E2.69541
G1 X102.767 Y107.860 E2.71117
G1 X104.362 Y108.344 E2.72850
G1 X106.022 Y108.507 E2.74583
G1 X107.682 Y108.344 E2.76317
G1 X109.278 Y107.860 E2.78050
G1 X110.615 Y107.145 E2.79626
G1 X142.429 Y107.145 E3.12693
G1 X143.767 Y107.860 E3.14269
G1 X145.362 Y108.344 E3.16003
G1 X147.022 Y108.507 E3.17736
G1 X148.682 Y108.344 E3.19470
G1 X150.278 Y107.860 E3.21203
G1 X151.748 Y107.074 E3.22936
G1 X153.038 Y106.016 E3.24670
G1 X154.096 Y104.726 E3.26403
G1 X154.882 Y103.256 E3.28137
G1 X155.366 Y101.660 E3.29870
G1 X155.529 Y100.000 E3.31603
G1 X155.366 Y98.340 E3.33337
G1 X154.882 Y96.744 E3.35070
G1 X154.096 Y95.274 E3.36803
G1 X153.038 Y93.984 E3.38537
G1 X151.748 Y92.926 E3.40270
G1 X150.325 Y92.166 E3.41948
G1 X148.687 Y91.657 E3.43731
G1 X147.018 Y91.492 E3.45473
G1 X145.325 Y91.668 E3.47243
G1 X143.767 Y92.140 E3.48936
G1 X142.429 Y92.855 E3.50512
G1 X110.615 Y92.855 E3.83579
G1 X109.278 Y92.140 E3.85155
G1 X107.682 Y91.656 E3.86888
G1 X106.022 Y91.493 E3.88622
G1 X104.362 Y91.656 E3.90355
G1 X102.767 Y92.140 E3.92088
G1 X101.429 Y92.855 E3.93664
G1 X58.671 Y92.855 E4.38106
G1 X59.120 Y93.220 E4.38708
G1 X59.384 Y93.460 E4.39079
G1 X59.067 Y93.460 E4.39408
G1 X58.532 Y92.886 E4.40224
G1 X58.087 Y93.255 E4.40825
G1 X57.333 Y92.446 E4.41973
G1 X56.888 Y92.815 E4.42574
G1 X56.148 Y92.021 E4.43703
G1 X55.729 Y92.367 E4.44268
G1 X55.123 Y91.691 E4.45212
G1 X54.686 Y92.040 E4.45793
G1 X53.964 Y91.230 E4.46921
G1 X53.500 Y91.599 E4.47536
G1 X52.670 Y90.704 E4.48805
G1 X52.427 Y90.904 E4.49132
G1 X52.114 Y90.599 E4.49586
G1 X52.748 Y90.599 E4.50245
G1 X52.114 Y89.982 E4.51165
G1 X52.748 Y89.982 E4.51824
G1 X52.114 Y89.364 E4.52743
G1 X52.748 Y89.364 E4.53402
G1 X49.035 Y85.747 E4.58791
G1 F1800.000 E3.08791
G92 E0
G1 X105.956 Y96.162 F7800.000
G1 E1.50000 F1800.000
G1 X105.956 Y91.851 E1.54481 F2099.527
G1 X108.956 Y92.408 E1.57652
G1 X108.956 Y97.544 E1.62990
G1 F1800.000 E0.12990
G92 E0
G1 X106.022 Y96.507 F7800.000
G1 E1.50000 F1800.000
G1 X106.704 Y96.574 E1.50712 F2099.527
G1 X107.359 Y96.773 E1.51423
G1 X107.963 Y97.096 E1.52135
G1 X108.492 Y97.530 E1.52847
G1 X108.926 Y98.060 E1.53558
G1 X109.249 Y98.663 E1.54270
G1 X109.448 Y99.319 E1.54982
G1 X109.515 Y100.000 E1.55693
G1 X109.448 Y100.681 E1.56405
G1 X109.249 Y101.337 E1.57117
G1 X108.926 Y101.940 E1.57828
G1 X108.492 Y102.470 E1.58540
G1 X107.963 Y102.904 E1.59252
G1 X107.359 Y103.227 E1.59963
G1 X106.704 Y103.426 E1.60675
G1 X106.022 Y103.493 E1.61387
G1 X105.341 Y103.426 E1.62098
G1 X104.686 Y103.227 E1.62810
G1 X104.082 Y102.904 E1.63521
G1 X103.552 Y102.470 E1.64233
G1 X103.118 Y101.940 E1.64945
G1 X102.795 Y101.337 E1.65656
G1 X102.596 Y100.681 E1.66368
G1 X102.529 Y100.000 E1.67080
G1 X102.596 Y99.319 E1.67791
G1 X102.795 Y98.663 E1.68503
G1 X103.118 Y98.060 E1.69215
G1 X103.552 Y97.530 E1.69926
G1 X104.082 Y97.096 E1.70638
G1 X104.686 Y96.773 E1.71350
G1 X105.341 Y96.574 E1.72061
G1 X106.022 Y96.507 E1.72773
G1 F1800.000 E0.22773
